!!!!SEGMENT: pl-wtm--r-1696_stefani-jozef--mazur-obertas.krn
!!!cenid: 18xx:2317
!!!COM: Stefani, Józef
!!!COM-rismid: pe30024097
!!!CDT: 1800/04/16-1876/03/19
!!!CNT: Polish
!!!OTL: Mazur-Obertas
!!!PDT:
!!!AGN: Secular; Mazurka
!!!SMS-siglum: PL-Wtm
!!!SMS-shelfmark: R 1696
!!!SMS-shelfwork: W
!!!SMS-variant:
!!!SMS-altvar:
!!!NIFC-rismid: 1001128536
!!!URL-scan: http://repozytorium.nifc.pl/skany/pl-wtm-nut--r1696
!!!ONB-nifc:
**kern	**dynam	**kern	**dynam	**kern	**dynam	**kern	**dynam	**kern	**dynam	**kern	**dynam	**kern	**dynam	**kern	**dynam	**kern	**dynam	**kern	**dynam	**kern	**dynam	**kern	**dynam
*part12	*part12	*part11	*part11	*part10	*part10	*part9	*part9	*part8	*part8	*part7	*part7	*part6	*part6	*part5	*part5	*part4	*part4	*part3	*part3	*part2	*part2	*part1	*part1
*staff12	*	*staff11	*	*staff10	*	*staff9	*	*staff8	*	*staff7	*	*staff6	*	*staff5	*	*staff4	*	*staff3	*	*staff2	*	*staff1	*
*Iempty	*	*Iviola	*	*Ivioln	*	*Ivioln	*	*Itromt	*	*Iempty	*	*Itromp	*	*Ifagot	*	*Icor	*	*Iclars	*	*Ioboe	*	*Ipicco	*
*I"Baſsi	*	*I"Viole	*	*I"Violini	*	*I"Violini	*	*I"Trombone	*	*I"Banda	*	*I"in C Trombe	*	*I"Fagot	*	*I"Corni in D.	*	*I"Clarinetti	*	*I"Oboe	*	*I"Picolo	*
*>[A,B,B,C,C,D,D,A,B,E]	*>[A,B,B,C,C,D,D,A,B,E]	*>[A,B,B,C,C,D,D,A,B,E]	*>[A,B,B,C,C,D,D,A,B,E]	*>[A,B,B,C,C,D,D,A,B,E]	*>[A,B,B,C,C,D,D,A,B,E]	*>[A,B,B,C,C,D,D,A,B,E]	*>[A,B,B,C,C,D,D,A,B,E]	*>[A,B,B,C,C,D,D,A,B,E]	*>[A,B,B,C,C,D,D,A,B,E]	*>[A,B,B,C,C,D,D,A,B,E]	*>[A,B,B,C,C,D,D,A,B,E]	*>[A,B,B,C,C,D,D,A,B,E]	*>[A,B,B,C,C,D,D,A,B,E]	*>[A,B,B,C,C,D,D,A,B,E]	*>[A,B,B,C,C,D,D,A,B,E]	*>[A,B,B,C,C,D,D,A,B,E]	*>[A,B,B,C,C,D,D,A,B,E]	*>[A,B,B,C,C,D,D,A,B,E]	*>[A,B,B,C,C,D,D,A,B,E]	*>[A,B,B,C,C,D,D,A,B,E]	*>[A,B,B,C,C,D,D,A,B,E]	*>[A,B,B,C,C,D,D,A,B,E]	*>[A,B,B,C,C,D,D,A,B,E]
*>A	*>A	*>A	*>A	*>A	*>A	*>A	*>A	*>A	*>A	*>A	*>A	*>A	*>A	*>A	*>A	*>A	*>A	*>A	*>A	*>A	*>A	*>A	*>A
*clefF4	*	*clefC3	*	*clefG2	*	*clefG2	*	*clefF4	*	*clefF4	*	*clefG2	*	*clefF4	*	*clefG2	*	*clefG2	*	*clefG2	*	*clefG2	*
*	*	*	*	*	*	*	*	*	*	*	*	*	*	*	*	*ITrd6c10	*	*	*	*	*	*ITrd0c0	*
*k[f#c#]	*	*k[f#c#]	*	*k[f#c#]	*	*k[f#c#]	*	*k[f#c#]	*	*	*	*k[f#c#]	*	*k[f#c#]	*	*k[f#c#]	*	*k[f#c#]	*	*k[f#c#]	*	*k[f#c#]	*
*D:	*	*D:	*	*D:	*	*D:	*	*D:	*	*	*	*D:	*	*D:	*	*D:	*	*D:	*	*D:	*	*D:	*
*M3/8	*	*M3/8	*	*M3/8	*	*M3/8	*	*M3/8	*	*M3/8	*	*M3/8	*	*M3/8	*	*M3/8	*	*M3/8	*	*M3/8	*	*M3/8	*
*all\right	*	*all\right	*	*all\right	*	*all\right	*	*all\right	*	*all\right	*	*all\right	*	*all\right	*	*all\right	*	*all\right	*	*all\right	*	*all\right	*
=1	=1	=1	=1	=1	=1	=1	=1	=1	=1	=1	=1	=1	=1	=1	=1	=1	=1	=1	=1	=1	=1	=1	=1
*^	*	*	*	*	*	*	*	*	*	*	*	*	*	*	*	*	*	*	*	*	*	*	*
*tremolo	*	*	*tremolo	*	*	*	*	*	*	*	*	*	*	*	*	*	*	*	*	*	*	*	*	*
!LO:TX:a:t=C&colon;b	!	!	!	!	!	!	!	!	!	!	!	!	!	!	!	!	!	!	!	!	!	!	!	!
!LO:TX:b:t=Cello	!	!	!	!LO:DY:rj	!	!	!	!	!	!	!	!	!	!	!	!	!	!	!	!	!	!	!LO:TX:a:t=Oberek Mazur No 2.	!
8D/L	8AAL 8DD\	.	8AL 8D/	f	4.r	.	4.r	.	4.r	.	4.r	.	4.r	.	4.r	.	4.r	.	4.r	.	4.r	.	4.r	.
8D/	8AA 8DD\	.	8A 8D/	.	.	.	.	.	.	.	.	.	.	.	.	.	.	.	.	.	.	.	.	.
8D/J	8AAJ 8DD\	.	8AJ 8D/	.	.	.	.	.	.	.	.	.	.	.	.	.	.	.	.	.	.	.	.	.
=2	=2	=2	=2	=2	=2	=2	=2	=2	=2	=2	=2	=2	=2	=2	=2	=2	=2	=2	=2	=2	=2	=2	=2	=2
8D/L	8AAL 8DD\	.	8AL 8D/	.	4.r	.	4.r	.	4.r	.	4.r	.	4.r	.	4.r	.	4.r	.	4.r	.	4.r	.	4.r	.
8D/	8AA 8DD\	.	8A 8D/	.	.	.	.	.	.	.	.	.	.	.	.	.	.	.	.	.	.	.	.	.
8D/J	8AAJ 8DD\	.	8AJ 8D/	.	.	.	.	.	.	.	.	.	.	.	.	.	.	.	.	.	.	.	.	.
.	.	.	.	.	.	.	.	f	.	.	.	f	.	.	.	.	.	.	.	.	.	.	.	f
=3	=3	=3	=3	=3	=3	=3	=3	=3	=3	=3	=3	=3	=3	=3	=3	=3	=3	=3	=3	=3	=3	=3	=3	=3
*	*	*	*	*	*	*	*	*	*	*	*^	*	*	*	*	*	*	*	*	*	*	*	*	*
!	!	!	!	!	!	!	!	!	!	!	!	!	!	!	!LO:DY:rj	!	!	!	!	!	!	!	!	!	!
.	.	.	.	.	8qgg/	.	(8qbb/	.	.	.	.	.	.	8qb 8qg/	f	.	.	.	.	(8qb 8qg/	.	(8qgg/	.	(8qbb/	.
*	*	*	*	*	*	*	*	*	*tremolo	*	*	*	*	*	*	*	*	*tremolo	*	*	*	*	*	*	*
!	!	!	!	!	!	!	!	!	!	!	!	!	!	!	!	!	!	!	!LO:DY:rj	!	!	!	!	!	!
8D/L	8AAL 8DD\	.	8AL 8D/	.	16.ff#\LL	.	16.aa\LL)	.	8D\L	.	8Ree/L	8Ra\	.	16.aLL 16.f#/	.	8DD/L	.	8AL 8D/	f	16.aLL 16.f#/)	.	16.ff#\LL)	.	16.aa\LL)	.
.	.	.	.	.	32ee#X\JJk	.	32gg#X\JJk|	.	.	.	.	.	.	32g#XJJk 32e#X/	.	.	.	.	.	32g#XJJk 32e#X/	.	32ee#X\JJk	.	32gg#X\JJk|	.
*	*	*	*	*	*	*	*	*	*	*	*tremolo	*	*	*	*	*	*	*	*	*	*	*	*	*	*
8D/	8AA 8DD\	.	8A 8D/	.	8ff#\L	.	8aa\L|	.	8D\	.	32Ree/LL	8r	.	8aL 8f#/	.	8D/	.	8A 8D/	.	8ddL 8f#/	.	8ff#\L	.	8aa'\L	.
.	.	.	.	.	.	.	.	.	.	.	32Ree/	.	.	.	.	.	.	.	.	.	.	.	.	.	.
.	.	.	.	.	.	.	.	.	.	.	32Ree/	.	.	.	.	.	.	.	.	.	.	.	.	.	.
.	.	.	.	.	.	.	.	.	.	.	32Ree/JJ	.	.	.	.	.	.	.	.	.	.	.	.	.	.
*	*	*	*	*	*	*	*	*	*	*	*Xtremolo	*	*	*	*	*	*	*	*	*	*	*	*	*	*
8D/J	8AAJ 8DD\	.	8AJ 8D/	.	8dd\J	.	8ff#\J|	.	8D\J	.	8Ree/J	8Ra\	.	8f#J 8d/	.	8D/J	.	8AJ 8D/	.	8aJ 8f#/	.	8dd\J	.	8ff#'\J	.
=4	=4	=4	=4	=4	=4	=4	=4	=4	=4	=4	=4	=4	=4	=4	=4	=4	=4	=4	=4	=4	=4	=4	=4	=4	=4
*	*	*	*	*	*	*	*	*	*	*	*rep	*rep	*	*	*	*rep	*	*	*	*	*	*	*	*	*
8D/L	8AAL 8DD\	.	8AL 8D/	.	8ff#\L	.	8ddd\L	.	8D\L	.	8Ree/L	8Ra\	.	8ddL 8f#/	.	8DD/L	.	8AL 8D/	.	8ddL 8f#/	.	8ff#\L	.	8ddd\L	.
*	*	*	*	*	*	*	*	*	*	*	*tremolo	*	*	*	*	*	*	*	*	*	*	*	*	*	*
8D/	8AA 8DD\	.	8A 8D/	.	16gg\L	.	16bb\L	.	8D\	.	32Ree/LL	8r	.	16bL 16g/	.	8D/	.	8A 8D/	.	16bL 16g/	.	16gg\L	.	16bb\L	.
.	.	.	.	.	.	.	.	.	.	.	32Ree/	.	.	.	.	.	.	.	.	.	.	.	.	.	.
.	.	.	.	.	16ff#\J	.	16aa\J	.	.	.	32Ree/	.	.	16aJ 16f#/	.	.	.	.	.	16aJ 16f#/	.	16ff#\J	.	16aa\J	.
.	.	.	.	.	.	.	.	.	.	.	32Ree/JJ	.	.	.	.	.	.	.	.	.	.	.	.	.	.
*	*	*	*	*	*	*	*	*	*	*	*Xtremolo	*	*	*	*	*	*	*	*	*	*	*	*	*	*
8D/J	8AAJ 8DD\	.	8AJ 8D/	.	8dd\J	.	8ff#\J	.	8D\J	.	8Ree/J	8Ra\	.	8f#J 8d/	.	8D/J	.	8AJ 8D/	.	8f#J 8d/	.	8dd\J	.	8ff#\J	.
*	*Xtremolo	*	*Xtremolo	*	*	*	*	*	*Xtremolo	*	*Xrep	*Xrep	*	*	*	*Xrep	*	*Xtremolo	*	*	*	*	*	*	*
*v	*v	*	*	*	*	*	*	*	*	*	*v	*v	*	*	*	*	*	*	*	*	*	*	*	*	*
=5	=5	=5	=5	=5	=5	=5	=5	=5	=5	=5	=5	=5	=5	=5	=5	=5	=5	=5	=5	=5	=5	=5	=5
8AA/L	.	8A\L	.	16.cc#\LL	.	16.ee\LL	.	8AA/L	.	4.r	.	16.eLL 16.c#/	.	8AA\L	.	8eL 8A\	.	16.eLL 16.c#/	.	16.cc#\LL	.	16.ee\LL	.
.	.	.	.	32ee\JJk	.	32gg\JJk	.	.	.	.	.	32gJJk 32e/	.	.	.	.	.	32gJJk 32e/	.	32ee\JJk	.	32gg\JJk	.
8D/	.	8d\	.	8dd\L	.	8ff#\L	.	8D/	.	.	.	8f#L 8d/	.	8D\	.	8f# 8d\	.	8f#L 8d/	.	8dd\L	.	8ff#\L	.
8F#/J	.	8f#\J	.	8a\J	.	8dd\J	.	8F#/J	.	.	.	8dJ 8A/	.	8F#\J	.	8dJ 8A 8F#\	.	8dJ 8A/	.	8a\J	.	8dd\J	.
!!LO:PB:g=original
=6	=6	=6	=6	=6	=6	=6	=6	=6	=6	=6	=6	=6	=6	=6	=6	=6	=6	=6	=6	=6	=6	=6	=6
*	*	*	*	*	*	*	*	*	*	*^	*	*	*	*	*	*	*	*	*	*	*	*	*
8AA/L	.	8A/L	.	(16dd\LL	.	(16ff#\LL	.	8AA/L	.	8r	8ryy	.	(16f#LL 16d/	.	8A\L	.	8r	.	(16f#LL 16d/	.	16dd\LL	.	(16ff#\LL	.
.	.	.	.	16cc#\JJ)	.	16ee\JJ)	.	.	.	.	.	.	16eJJ 16c#/)	.	.	.	.	.	16eJJ 16c#/)	.	16cc#\JJ	.	16ee\JJ)	.
8C#/	.	8c#/	.	8a/	.	8a\L	.	8C#/	.	8r	8ryy	.	8A/L	.	8c#\	.	8eL 8A/	.	8A/L	.	8a/L	.	8a\L	.
8AA/J	.	8A/J	.	8cc# 8e 8A/	.	8aaJ 8cc# 8e\	.	8AA/J	.	8Ree/	8Ra\	.	8aJ 8c#/	.	8A\J	.	8eJ 8A/	.	8aJ 8c#/	.	8cc#/J	.	8aa\J	.
=7	=7	=7	=7	=7	=7	=7	=7	=7	=7	=7	=7	=7	=7	=7	=7	=7	=7	=7	=7	=7	=7	=7	=7	=7
.	.	.	.	8qgg/	.	8qbb/	.	.	.	.	.	.	(8qb 8qg/	.	.	.	.	.	(8qb 8qg/	.	(8qgg/	.	(8qbb/	.
*^	*	*	*	*	*	*	*	*	*	*	*	*	*	*	*	*	*	*	*	*	*	*	*	*
*tremolo	*	*	*tremolo	*	*	*	*	*	*tremolo	*	*tremolo	*	*	*	*	*	*	*	*	*	*	*	*	*	*
8D/L	8AAL 8DD\	.	8AL 8D/	.	16.ff#\LL	.	16.aa\LL	.	8D\L	.	32Ree/LLL	8Ra\L	.	16.aLL 16.f#/)	.	16d\	.	16d 16F#/	.	16.aLL 16.f#/)	.	16.ff#\LL)	.	16.aa\LL)	.
.	.	.	.	.	.	.	.	.	.	.	32Ree/	.	.	.	.	.	.	.	.	.	.	.	.	.	.
.	.	.	.	.	.	.	.	.	.	.	32Ree/	.	.	.	.	16r	.	16r	.	.	.	.	.	.	.
.	.	.	.	.	32ee#X\JJk	.	32gg#X\JJk	.	.	.	32Ree/JJ	.	.	32g#XJJk 32e#X/	.	.	.	.	.	32g#X|JJk 32e#X/	.	32ee#X\JJk	.	32gg#X\JJk	.
*	*	*	*	*	*	*	*	*	*	*	*Xtremolo	*	*	*	*	*	*	*	*	*	*	*	*	*	*
8D/	8AA 8DD\	.	8A 8D/	.	8ff#\L	.	8aa\L	.	8D\	.	8Ree/	8r	.	8aL 8f#/	.	8D\L	.	8AL 8D/	.	8a|L 8f#/	.	8ff#\L	.	8aa\L	.
8D/J	8AAJ 8DD\	.	8AJ 8D/	.	8dd\J	.	8ff#\J	.	8D\J	.	8Ree/J	8Ra\J	.	8f#J 8d/	.	8D\J	.	8AJ 8D/	.	8f#|J 8d/	.	8dd\J	.	8ff#\J	.
=8	=8	=8	=8	=8	=8	=8	=8	=8	=8	=8	=8	=8	=8	=8	=8	=8	=8	=8	=8	=8	=8	=8	=8	=8	=8
*	*	*	*	*	*	*	*	*	*	*	*rep	*	*	*	*	*	*	*	*	*	*	*	*	*	*
*	*	*	*	*	*	*	*	*	*	*	*tremolo	*rep	*	*	*	*	*	*tremolo	*	*	*	*	*	*	*
8D/L	8AAL 8DD\	.	8AL 8D/	.	8ff#L 8a 8d\	.	8ddd\L	.	8D\L	.	32Ree/LLL	8Ra\L	.	8ddL 8f#/	.	8DD/L	.	8AL 8D/	.	8ddL 8f#/	.	8ff#\L	.	8ddd'\L	.
.	.	.	.	.	.	.	.	.	.	.	32Ree/	.	.	.	.	.	.	.	.	.	.	.	.	.	.
.	.	.	.	.	.	.	.	.	.	.	32Ree/	.	.	.	.	.	.	.	.	.	.	.	.	.	.
.	.	.	.	.	.	.	.	.	.	.	32Ree/JJ	.	.	.	.	.	.	.	.	.	.	.	.	.	.
*	*	*	*	*	*	*	*	*	*	*	*Xtremolo	*	*	*	*	*	*	*	*	*	*	*	*	*	*
8D/	8AA 8DD\	.	8A 8D/	.	16gg\L	.	16bb\L	.	8D\	.	8Ree/	8r	.	16bL 16g/	.	8D/	.	8A 8D/	.	16bL 16g/	.	16gg\L	.	(16bb\L	.
.	.	.	.	.	16ff#\J	.	16aa\J	.	.	.	.	.	.	16aJ 16f#/	.	.	.	.	.	16aJ 16f#/	.	16ff#\J	.	16aa\J)	.
8D/J	8AAJ 8DD\	.	8AJ 8D/	.	8dd\J	.	8ff#\J	.	8D\J	.	8Ree/J	8Ra\J	.	8f#J 8d/	.	8D/J	.	8AJ 8D/	.	8f#J 8d/	.	8dd\J	.	8ff#'\J	.
*	*Xtremolo	*	*Xtremolo	*	*	*	*	*	*Xtremolo	*	*Xrep	*Xrep	*	*	*	*	*	*Xtremolo	*	*	*	*	*	*	*
*v	*v	*	*	*	*	*	*	*	*	*	*	*	*	*	*	*	*	*	*	*	*	*	*	*	*
=9	=9	=9	=9	=9	=9	=9	=9	=9	=9	=9	=9	=9	=9	=9	=9	=9	=9	=9	=9	=9	=9	=9	=9	=9
16.G\LL	.	16.g\LL	.	16.bLL 16.g/	.	16.ee\LL	.	16.G\LL	.	8rA	8rFF	.	16.e/LL	.	16.G\LL	.	8r	.	16.eLL 16.B/	.	16.b\LL	.	16.ee\LL	.
32E\JJk	.	32e\JJk	.	32bJJk 32g/	.	32gg\JJk	.	32E\JJk	.	.	.	.	32g/JJk	.	32E\JJk	.	.	.	32gJJk 32B/	.	32b\JJk	.	32gg\JJk	.
!LO:TX:t=P:problem:mixed beam	!	!LO:TX:t=P:problem:mixed beam	!	!	!	!	!	!LO:TX:t=P:problem:mixed beam	!	!	!	!	!	!	!LO:TX:t=P:problem:mixed beam	!	!	!	!	!	!	!	!	!
8A\L	.	8a\L	.	8ddL 8f#/	.	8ff#\L	.	8A\L	.	8rA	8rFF	.	8f#/L	.	8A\L	.	8f#L 8d\	.	8f#L 8d/	.	8dd\L	.	8ff#\L	.
8AA/J	.	8A/J	.	8cc#J 8g/	.	8ee\J	.	8AA/J	.	32Ree/LLL	8Ra\	.	8cc#J 8g/	.	8AA/J	.	8eJ 8A\	.	8eJ 8c#/	.	8cc#\J	.	8ee\J	.
.	.	.	.	.	.	.	.	.	.	32Ree/	.	.	.	.	.	.	.	.	.	.	.	.	.	.
.	.	.	.	.	.	.	.	.	.	32Ree/	.	.	.	.	.	.	.	.	.	.	.	.	.	.
.	.	.	.	.	.	.	.	.	.	32Ree/JJJ	.	.	.	.	.	.	.	.	.	.	.	.	.	.
=10	=10	=10	=10	=10	=10	=10	=10	=10	=10	=10	=10	=10	=10	=10	=10	=10	=10	=10	=10	=10	=10	=10	=10	=10
*	*	*	*	*	*	*	*	*	*	*	*	*	*	*	*	*	*	*	*^	*	*	*	*	*
16D\	.	16d\	.	16dd 16f#/	.	16dd\	.	16D\	.	16Ree/	8Ra\	.	16dd 16f#/	.	16D\	.	16d 16F#/	.	16d/	16d\	.	16dd\	.	16dd\	.
16r	.	16r	.	16r	.	16r	.	16r	.	16rA	.	.	16r	.	16r	.	16r	.	16r	16ryy	.	16r	.	16r	.
!	!	!	!	!	!	!LO:TX:b:t=sec	!	!	!	!	!	!	!	!	!	!	!	!	!	!	!	!	!	!	!
8D\	.	8f# 8A 8D/	.	8dd 8f#/	.	8ddd 8ff#\	.	8D\	.	8Ree/	8Ra\	.	8dd 8f#/	.	8D\	.	8d 8F#/	.	8dd 8f#/	8ryy	.	8ff#\	.	8ddd\	.
8r	.	8r	.	8r	.	8r	.	8r	.	8rA	8rFF	.	8r	.	8r	.	8r	.	8r	8ryy	.	8r	.	8r	.
*	*	*	*	*	*	*	*	*	*	*v	*v	*	*	*	*	*	*	*	*v	*v	*	*	*	*	*
!!LO:PB:g=original
=11!|:	=11!|:	=11!|:	=11!|:	=11!|:	=11!|:	=11!|:	=11!|:	=11!|:	=11!|:	=11!|:	=11!|:	=11!|:	=11!|:	=11!|:	=11!|:	=11!|:	=11!|:	=11!|:	=11!|:	=11!|:	=11!|:	=11!|:	=11!|:
*>B	*>B	*>B	*>B	*>B	*>B	*>B	*>B	*>B	*>B	*>B	*>B	*>B	*>B	*>B	*>B	*>B	*>B	*>B	*>B	*>B	*>B	*>B	*>B
*^	*	*	*	*	*	*	*	*	*	*	*	*	*	*	*	*	*	*	*	*	*	*	*
.	.	.	.	.	.	.	.	.	.	.	.	.	.	.	.	.	.	.	.	.	.	.	(8qee#X/	.
!	!	!	!	!	!	!	!	!	!	!	!	!	!	!	!LO:TUP:a	!	!	!	!	!	!	!	!	!
(32BB/LLL	8BB\	p	8r	.	8r	.	4.r	.	4.ryy	.	4.ryy	.	4.ryy	.	24F#'\LL	.	4.r	.	4.r	.	24f#/LL|	.	4.ff#tt\)	.
32F#/)	.	.	.	.	.	.	.	.	.	.	.	.	.	.	.	.	.	.	.	.	.	.	.	.
.	.	.	.	.	.	.	.	.	.	.	.	.	.	.	(24B\	.	.	.	.	.	(24b/	.	.	.
32F#'/	.	.	.	.	.	.	.	.	.	.	.	.	.	.	.	.	.	.	.	.	.	.	.	.
.	.	.	.	.	.	.	.	.	.	.	.	.	.	.	24c#\JJ)	.	.	.	.	.	24cc#/JJ)	.	.	.
32F#'/JJJ	.	.	.	.	.	.	.	.	.	.	.	.	.	.	.	.	.	.	.	.	.	.	.	.
!	!	!	!	!	!	!LO:DY:rj	!	!	!	!	!	!	!	!	!	!	!	!	!	!	!	!	!	!
(32G/LLL	8rFF	.	8B/L	.	8d/L	p	.	.	.	.	.	.	.	.	8d'\L	.	.	.	.	.	8dd\L|	.	.	.
32F#/)	.	.	.	.	.	.	.	.	.	.	.	.	.	.	.	.	.	.	.	.	.	.	.	.
32F#'/	.	.	.	.	.	.	.	.	.	.	.	.	.	.	.	.	.	.	.	.	.	.	.	.
32F#'/JJJ	.	.	.	.	.	.	.	.	.	.	.	.	.	.	.	.	.	.	.	.	.	.	.	.
8F#/	8rFF	.	8F#/J	.	8f#/J	.	.	.	.	.	.	.	.	.	8f#'\J	.	.	.	.	.	8ff#\J|	.	.	.
=12	=12	=12	=12	=12	=12	=12	=12	=12	=12	=12	=12	=12	=12	=12	=12	=12	=12	=12	=12	=12	=12	=12	=12	=12
(32C#/LLL	8BB\	.	8r	.	8r	.	4.r	.	4.ryy	.	4.ryy	.	4.ryy	.	16.e|\LL	.	4.r	.	4.r	.	16.ee\LL|	.	4.ff#ttt\	.
32F#/)	.	.	.	.	.	.	.	.	.	.	.	.	.	.	.	.	.	.	.	.	.	.	.	.
32F#'/	.	.	.	.	.	.	.	.	.	.	.	.	.	.	.	.	.	.	.	.	.	.	.	.
32F#'/JJJ	.	.	.	.	.	.	.	.	.	.	.	.	.	.	32d|\JJk	.	.	.	.	.	32dd\JJk|	.	.	.
(32G/LLL	8rFF	.	8A#X/L	.	8e/L	.	.	.	.	.	.	.	.	.	8c#|\L	.	.	.	.	.	8cc#/L|	.	.	.
32F#/)	.	.	.	.	.	.	.	.	.	.	.	.	.	.	.	.	.	.	.	.	.	.	.	.
32F#'/	.	.	.	.	.	.	.	.	.	.	.	.	.	.	.	.	.	.	.	.	.	.	.	.
32F#'/JJJ	.	.	.	.	.	.	.	.	.	.	.	.	.	.	.	.	.	.	.	.	.	.	.	.
8F#/	8rFF	.	8F#/J	.	8f#/J	.	.	.	.	.	.	.	.	.	8F#|\J	.	.	.	.	.	8f#/J|	.	.	.
=13	=13	=13	=13	=13	=13	=13	=13	=13	=13	=13	=13	=13	=13	=13	=13	=13	=13	=13	=13	=13	=13	=13	=13	=13
!	!	!	!	!	!	!	!	!	!	!	!	!	!	!	!	!	!	!LO:DY:rj	!	!LO:DY:rj	!	!	!	!
(32BB/LLL	8BB\	.	8r	.	8r	.	16.dd\LL|	.	4.ryy	.	4.ryy	.	4.ryy	.	16.d|\LL	.	[4.f# [4.F#/	p	(4.b (4.d/	p	16.dd\LL|	.	4.ff#ttt\	.
32F#/)	.	.	.	.	.	.	.	.	.	.	.	.	.	.	.	.	.	.	.	.	.	.	.	.
32F#'/	.	.	.	.	.	.	.	.	.	.	.	.	.	.	.	.	.	.	.	.	.	.	.	.
32F#'/JJJ	.	.	.	.	.	.	32cc#\K|	.	.	.	.	.	.	.	32c#|\JJk	.	.	.	.	.	32cc#\|	.	.	.
(32G/LLL	8rFF	.	8B/L	.	8d/L	.	16b\|	.	.	.	.	.	.	.	16B|\LL	.	.	.	.	.	(16b\	.	.	.
32F#/)	.	.	.	.	.	.	.	.	.	.	.	.	.	.	.	.	.	.	.	.	.	.	.	.
32F#'/	.	.	.	.	.	.	(16dd\	.	.	.	.	.	.	.	(16d\	.	.	.	.	.	16dd\	.	.	.
32F#'/JJJ	.	.	.	.	.	.	.	.	.	.	.	.	.	.	.	.	.	.	.	.	.	.	.	.
8F#/	8rFF	.	8F#/J	.	8f#/J	.	16cc#\	.	.	.	.	.	.	.	16c#\	.	.	.	.	.	16cc#\	.	.	.
.	.	.	.	.	.	.	16b\JJ)	.	.	.	.	.	.	.	16B\JJ)	.	.	.	.	.	16b\JJ)	.	.	.
=14	=14	=14	=14	=14	=14	=14	=14	=14	=14	=14	=14	=14	=14	=14	=14	=14	=14	=14	=14	=14	=14	=14	=14	=14
.	.	.	.	.	.	.	(8qdd/	.	.	.	.	.	.	.	(8qd/	.	.	.	.	.	(8qdd/	.	.	.
(32C#/LLL	8BB\	.	8r	.	8r	.	16.cc#/LL)	.	4.ryy	.	4.ryy	.	4.ryy	.	16.c#\LL)	.	4.f#] 4.F#/]	.	4.a#X 4.c#/))	.	16.cc#/LL)	.	4.ff#ttt\	.
32F#/)	.	.	.	.	.	.	.	.	.	.	.	.	.	.	.	.	.	.	.	.	.	.	.	.
32F#'/	.	.	.	.	.	.	.	.	.	.	.	.	.	.	.	.	.	.	.	.	.	.	.	.
32F#'/JJJ	.	.	.	.	.	.	32b#X/JJk|	.	.	.	.	.	.	.	32B#X|\JJk	.	.	.	.	.	32b#X/JJk|	.	.	.
(32G/LLL	8rFF	.	8A#X/L	.	8c#/L	.	8cc#/L|	.	.	.	.	.	.	.	8c#|\L	.	.	.	.	.	8cc#/L	.	.	.
32F#/)	.	.	.	.	.	.	.	.	.	.	.	.	.	.	.	.	.	.	.	.	.	.	.	.
32F#'/	.	.	.	.	.	.	.	.	.	.	.	.	.	.	.	.	.	.	.	.	.	.	.	.
32F#'/JJJ	.	.	.	.	.	.	.	.	.	.	.	.	.	.	.	.	.	.	.	.	.	.	.	.
8F#/	8rFF	.	8F#/J	.	8f#/J	.	8f#/J|	.	.	.	.	.	.	.	8F#\J|	.	.	.	.	.	8f#/J	.	.	.
=15	=15	=15	=15	=15	=15	=15	=15	=15	=15	=15	=15	=15	=15	=15	=15	=15	=15	=15	=15	=15	=15	=15	=15	=15
.	.	.	.	.	.	.	.	.	.	.	.	.	.	.	.	.	.	.	.	.	.	.	8qee#X/	.
!	!	!	!	!	!	!	!	!	!	!	!	!	!	!	!LO:TUP:a	!	!	!	!	!	!LO:TUP:b	!	!	!
(32BB/LLL	8BB\	.	8r	.	8r	.	4.r	.	4.ryy	.	4.ryy	.	4.ryy	.	24F#'\LL	.	4.r	.	4.r	.	24f#/LL|	.	4.ff#tt\	.
32F#/)	.	.	.	.	.	.	.	.	.	.	.	.	.	.	.	.	.	.	.	.	.	.	.	.
.	.	.	.	.	.	.	.	.	.	.	.	.	.	.	(24B\	.	.	.	.	.	(24b/	.	.	.
32F#'/	.	.	.	.	.	.	.	.	.	.	.	.	.	.	.	.	.	.	.	.	.	.	.	.
.	.	.	.	.	.	.	.	.	.	.	.	.	.	.	24c#\JJ)	.	.	.	.	.	24cc#/JJ)	.	.	.
32F#'/JJJ	.	.	.	.	.	.	.	.	.	.	.	.	.	.	.	.	.	.	.	.	.	.	.	.
(32G/LLL	8rFF	.	8B/L	.	8d/L	.	.	.	.	.	.	.	.	.	8d'\L	.	.	.	.	.	8dd'\L	.	.	.
32F#/)	.	.	.	.	.	.	.	.	.	.	.	.	.	.	.	.	.	.	.	.	.	.	.	.
32F#'/	.	.	.	.	.	.	.	.	.	.	.	.	.	.	.	.	.	.	.	.	.	.	.	.
32F#'/JJJ	.	.	.	.	.	.	.	.	.	.	.	.	.	.	.	.	.	.	.	.	.	.	.	.
8F#/	8rFF	.	8F#/J	.	8f#/J	.	.	.	.	.	.	.	.	.	8f#'\J	.	.	.	.	.	8ff#'\J	.	.	.
=16	=16	=16	=16	=16	=16	=16	=16	=16	=16	=16	=16	=16	=16	=16	=16	=16	=16	=16	=16	=16	=16	=16	=16	=16
(32C#/LLL	8BB\	.	8r	.	8r	.	4.r	.	4.ryy	.	4.ryy	.	4.ryy	.	16.e'\LL	.	4.r	.	4.r	.	16.ee'\LL	.	4.ff#ttt\	.
32F#/)	.	.	.	.	.	.	.	.	.	.	.	.	.	.	.	.	.	.	.	.	.	.	.	.
32F#'/	.	.	.	.	.	.	.	.	.	.	.	.	.	.	.	.	.	.	.	.	.	.	.	.
32F#'/JJJ	.	.	.	.	.	.	.	.	.	.	.	.	.	.	32d'\JJk	.	.	.	.	.	32dd'\JJk	.	.	.
(32G/LLL	8rFF	.	8A#X/L	.	8e/L	.	.	.	.	.	.	.	.	.	8c#'\L	.	.	.	.	.	8cc#'/L	.	.	.
32F#/)	.	.	.	.	.	.	.	.	.	.	.	.	.	.	.	.	.	.	.	.	.	.	.	.
32F#'/	.	.	.	.	.	.	.	.	.	.	.	.	.	.	.	.	.	.	.	.	.	.	.	.
32F#'/JJJ	.	.	.	.	.	.	.	.	.	.	.	.	.	.	.	.	.	.	.	.	.	.	.	.
8F#/	8rFF	.	8F#/J	.	8f#/J	.	.	.	.	.	.	.	.	.	8F#'\J	.	.	.	.	.	8f#'/J	.	.	.
!!LO:PB:g=original
=17	=17	=17	=17	=17	=17	=17	=17	=17	=17	=17	=17	=17	=17	=17	=17	=17	=17	=17	=17	=17	=17	=17	=17	=17
(32BB/LLL	8BB\	.	8r	.	8r	.	16.dd\LL	.	4.r	.	4.r	.	4.r	.	16.d\LL	.	4.f# 4.F#/	.	4b 4d/	.	16.dd\LL	.	4ff#t\	.
32F#/)	.	.	.	.	.	.	.	.	.	.	.	.	.	.	.	.	.	.	.	.	.	.	.	.
32F#'/	.	.	.	.	.	.	.	.	.	.	.	.	.	.	.	.	.	.	.	.	.	.	.	.
32F#'/JJJ	.	.	.	.	.	.	32cc#\JJk	.	.	.	.	.	.	.	32c#\JJk	.	.	.	.	.	32cc#\JJk	.	.	.
(32G/LLL	8r	.	8B/L	.	8d/L	.	16b\LL	.	.	.	.	.	.	.	16B\LL	.	.	.	.	.	16b\LL	.	.	.
32F#/)	.	.	.	.	.	.	.	.	.	.	.	.	.	.	.	.	.	.	.	.	.	.	.	.
32F#'/	.	.	.	.	.	.	16dd\	.	.	.	.	.	.	.	16d\	.	.	.	.	.	16dd\	.	.	.
32F#'/JJJ	.	.	.	.	.	.	.	.	.	.	.	.	.	.	.	.	.	.	.	.	.	.	.	.
8F#/	8r	.	8c#/J	.	8e/J	.	16cc#\	.	.	.	.	.	.	.	16c#\	.	.	.	8cc# 8e/	.	16cc#\	.	(32ee#X\LLL	.
.	.	.	.	.	.	.	.	.	.	.	.	.	.	.	.	.	.	.	.	.	.	.	32ff#\	.
.	.	.	.	.	.	.	16a#X\JJ	.	.	.	.	.	.	.	16A#X\JJ	.	.	.	.	.	16a#X\JJ	.	32gg#X\	.
.	.	.	.	.	.	.	.	.	.	.	.	.	.	.	.	.	.	.	.	.	.	.	32aa#X\JJJ	.
=18	=18	=18	=18	=18	=18	=18	=18	=18	=18	=18	=18	=18	=18	=18	=18	=18	=18	=18	=18	=18	=18	=18	=18	=18
*	*	*	*	*	*	*	*	*	*	*	*^	*	*	*	*	*	*	*	*	*	*	*	*	*
16BB/	8BB\	.	16B/	.	16d/	.	16b\	.	8r	.	8r	8ryy	.	8r	.	16B\	.	16f# 16F#/	.	16b 16d/	.	16b\	.	16bb\)	.
16r	.	.	16r	.	16r	.	16r	.	.	.	.	.	.	.	.	16r	.	16r	.	16r	.	16r	.	16r	.
8BB/	8ryy	.	8f# 8B/	.	8dd 8f#/	.	8bb 8b\	.	8r	.	8r	8ryy	.	8r	.	8BB/	.	8d 8D/	.	8b 8f#/	.	8bb\	.	8bb\	.
!	!	!LO:DY:rj	!	!LO:DY:rj	!	!LO:DY:rj	!	!LO:DY:rj	!	!	!	!	!	!	!	!	!LO:DY:rj	!	!LO:DY:rj	!	!	!	!	!	!
8AA/	8ryy	f	8g 8A/	f	8cc# 8e/	f	8ccc# 8a\	f	8AA/	.	32Ree/LLL	8Ra\	.	8cc# 8e/	.	8AA/	f	8A 8AA/	f	8cc# 8g/	.	8gg\	.	8ccc#\	.
.	.	.	.	.	.	.	.	.	.	.	32Ree/	.	.	.	.	.	.	.	.	.	.	.	.	.	.
.	.	.	.	.	.	.	.	.	.	.	32Ree/	.	.	.	.	.	.	.	.	.	.	.	.	.	.
.	.	.	.	.	.	.	.	.	.	.	32Ree/JJJ	.	.	.	.	.	.	.	.	.	.	.	.	.	.
=19	=19	=19	=19	=19	=19	=19	=19	=19	=19	=19	=19	=19	=19	=19	=19	=19	=19	=19	=19	=19	=19	=19	=19	=19	=19
!	!	!	!	!	!	!	!	!	!	!	!	!	!	!	!LO:DY:rj	!	!	!	!	!	!	!	!	!	!LO:DY:rj
.	.	.	.	.	8qgg/yy	.	(8qbb/	.	.	.	.	.	.	8qbyy 8qg/yy	fy	.	.	.	.	(y8qbyy 8qg/yy	.	(y8qgg/yy	.	(y8qbb/yy	fy
*tremolo	*	*	*tremolo	*	*	*	*	*	*tremolo	*	*	*	*	*	*	*	*	*tremolo	*	*	*	*	*	*	*
!	!	!	!	!	!	!	!	!	!	!	!	!	!LO:DY:rj	!	!	!	!	!	!LO:DY:rj	!	!	!	!	!	!
8DL/yy	8AALyy 8DD\yy	.	8ALyy 8D/yy	.	16.ff#\LLyy	.	16.aa\LL)	.	8D\Lyy	.	8Ree/Lyy	8Ra\yy	fy	16.aLLyy 16.f#/yy	.	8DD/Lyy	.	8ALyy 8D/yy	fy	16.aLLyy 16.f#/)yy	.	16.ff#\LL)yy	.	16.aa\LL)yy	.
.	.	.	.	.	32ee#X\JJkyy	.	32gg#X|\JJk	.	.	.	.	.	.	32g#XJJkyy 32e#X/yy	.	.	.	.	.	32g#XJJkyy 32e#X/yy	.	32ee#X\JJkyy	.	32gg#X\JJk|yy	.
*	*	*	*	*	*	*	*	*	*	*	*tremolo	*	*	*	*	*	*	*	*	*	*	*	*	*	*
8D/yy	8AAyy 8DD\yy	.	8Ayy 8D/yy	.	8ff#\Lyy	.	8aa|\L	.	8D\yy	.	32Ree/LLyy	8ryy	.	8aLyy 8f#/yy	.	8D/yy	.	8Ayy 8D/yy	.	8ddLyy 8f#/yy	.	8ff#\Lyy	.	8aa'\Lyy	.
.	.	.	.	.	.	.	.	.	.	.	32Ree/yy	.	.	.	.	.	.	.	.	.	.	.	.	.	.
.	.	.	.	.	.	.	.	.	.	.	32Ree/yy	.	.	.	.	.	.	.	.	.	.	.	.	.	.
.	.	.	.	.	.	.	.	.	.	.	32Ree/JJyy	.	.	.	.	.	.	.	.	.	.	.	.	.	.
*	*	*	*	*	*	*	*	*	*	*	*Xtremolo	*	*	*	*	*	*	*	*	*	*	*	*	*	*
8DJ/yy	8AAJyy 8DD\yy	.	8AJyy 8D/yy	.	8dd\Jyy	.	8ff#|\J	.	8D\Jyy	.	8Ree/Jyy	8Ra\yy	.	8f#Jyy 8d/yy	.	8D/Jyy	.	8AJyy 8D/yy	.	8aJyy 8f#/yy	.	8dd\Jyy	.	8ff#'\Jyy	.
=20	=20	=20	=20	=20	=20	=20	=20	=20	=20	=20	=20	=20	=20	=20	=20	=20	=20	=20	=20	=20	=20	=20	=20	=20	=20
*	*	*	*	*	*	*	*	*	*	*	*	*	*	*	*	*rep	*	*	*	*	*	*	*	*	*
8DL/yy	8AALyy 8DD\yy	.	8ALyy 8D/yy	.	8ff#\Lyy	.	8ddd|L 8dd 8d\	.	8D\Lyy	.	8Ree/Lyy	8Ra\yy	.	8ddLyy 8f#/yy	.	8DD/Lyy	.	8ALyy 8D/yy	.	8ddLyy 8f#/yy	.	8ff#\Lyy	.	8ddd\Lyy	.
*	*	*	*	*	*	*	*	*	*	*	*tremolo	*	*	*	*	*	*	*	*	*	*	*	*	*	*
8D/yy	8AAyy 8DD\yy	.	8Ayy 8D/yy	.	16gg\Lyy	.	(16bb\L	.	8D\yy	.	32Ree/LLyy	8ryy	.	16bLyy 16g/yy	.	8D/yy	.	8Ayy 8D/yy	.	16bLyy 16g/yy	.	16gg\Lyy	.	16bb\Lyy	.
.	.	.	.	.	.	.	.	.	.	.	32Ree/yy	.	.	.	.	.	.	.	.	.	.	.	.	.	.
.	.	.	.	.	16ff#\Jyy	.	16aa\J)	.	.	.	32Ree/yy	.	.	16aJyy 16f#/yy	.	.	.	.	.	16aJyy 16f#/yy	.	16ff#\Jyy	.	16aa\Jyy	.
.	.	.	.	.	.	.	.	.	.	.	32Ree/JJyy	.	.	.	.	.	.	.	.	.	.	.	.	.	.
*	*	*	*	*	*	*	*	*	*	*	*Xtremolo	*	*	*	*	*	*	*	*	*	*	*	*	*	*
8DJ/yy	8AAJyy 8DD\yy	.	8AJyy 8D/yy	.	8dd\Jyy	.	8ff#'\J	.	8D\Jyy	.	8Ree/Jyy	8Ra\yy	.	8f#Jyy 8d/yy	.	8D/Jyy	.	8AJyy 8D/yy	.	8f#Jyy 8d/yy	.	8dd\Jyy	.	8ff#\Jyy	.
*	*Xtremolo	*	*Xtremolo	*	*	*	*	*	*Xtremolo	*	*	*	*	*	*	*Xrep	*	*Xtremolo	*	*	*	*	*	*	*
*v	*v	*	*	*	*	*	*	*	*	*	*v	*v	*	*	*	*	*	*	*	*	*	*	*	*	*
=21	=21	=21	=21	=21	=21	=21	=21	=21	=21	=21	=21	=21	=21	=21	=21	=21	=21	=21	=21	=21	=21	=21	=21
8AA/Lyy	.	8A\Lyy	.	16.cc#\LLyy	.	16.ee\LL	.	8AA/Lyy	.	4.ryy	.	16.eLLyy 16.c#/yy	.	8AA\Lyy	.	8eLyy 8A\yy	.	16.eLLyy 16.c#/yy	.	16.cc#\LLyy	.	16.ee\LLyy	.
.	.	.	.	32ee\JJkyy	.	32gg\JJk	.	.	.	.	.	32gJJkyy 32e/yy	.	.	.	.	.	32gJJkyy 32e/yy	.	32ee\JJkyy	.	32gg\JJkyy	.
8D/yy	.	8d\yy	.	8dd\Lyy	.	8ff#\L	.	8D/yy	.	.	.	8f#Lyy 8d/yy	.	8D\yy	.	8f#yy 8d\yy	.	8f#Lyy 8d/yy	.	8dd\Lyy	.	8ff#\Lyy	.
8F#/Jyy	.	8f#\Jyy	.	8a\Jyy	.	8dd\J	.	8F#/Jyy	.	.	.	8dJyy 8A/yy	.	8F#\Jyy	.	8dJyy 8A 8F#\yy	.	8dJyy 8A/yy	.	8a\Jyy	.	8dd\Jyy	.
!!LO:PB:g=original
=22	=22	=22	=22	=22	=22	=22	=22	=22	=22	=22	=22	=22	=22	=22	=22	=22	=22	=22	=22	=22	=22	=22	=22
*	*	*	*	*	*	*	*	*	*	*^	*	*	*	*	*	*	*	*	*	*	*	*	*
8AA/L	.	8A/Lyy	.	(y16dd\LLyy	.	16ff#\LL	.	8AA/Lyy	.	8ryy	8ryy	.	(y16f#LLyy 16d/yy	.	8A\Lyy	.	8ryy	.	(y16f#LLyy 16d/yy	.	16dd\LLyy	.	(y16ff#\LLyy	.
.	.	.	.	16cc#\JJ)yy	.	16ee\JJ	.	.	.	.	.	.	16eJJyy 16c#/)yy	.	.	.	.	.	16eJJyy 16c#/)yy	.	16cc#\JJyy	.	16ee\JJ)yy	.
8C#/	.	8c#/yy	.	8a/yy	.	8a\L	.	8C#/yy	.	8ryy	8ryy	.	8A/Lyy	.	8c#\yy	.	8eLyy 8A/yy	.	8A/Lyy	.	8a/Lyy	.	8a\Lyy	.
8AA/J	.	8A/Jyy	.	8cc#yy 8eyy 8A/yy	.	8aaJ 8cc#\	.	8AA/Jyy	.	8Ree/yy	8Ra\yy	.	8aJyy 8c#/yy	.	8A\Jyy	.	8eJyy 8A/yy	.	8aJyy 8c#/yy	.	8cc#/Jyy	.	8aa\Jyy	.
=23	=23	=23	=23	=23	=23	=23	=23	=23	=23	=23	=23	=23	=23	=23	=23	=23	=23	=23	=23	=23	=23	=23	=23	=23
*^	*	*	*	*	*	*	*	*	*	*	*	*	*	*	*	*	*	*	*	*	*	*	*	*
.	.	.	.	.	8qgg/yy	.	8qbb/	.	.	.	.	.	.	(y8qbyy 8qg/yy	.	.	.	.	.	(y8qbyy 8qg/yy	.	(y8qgg/yy	.	(y8qbb/yy	.
*tremolo	*	*	*tremolo	*	*	*	*	*	*tremolo	*	*tremolo	*	*	*	*	*	*	*	*	*	*	*	*	*	*
8D/Lyy	8AALyy 8DD\yy	.	8ALyy 8D/yy	.	16.ff#\LLyy	.	16.aa\LL	.	8D\Lyy	.	32Ree/LLLyy	8Ra\Lyy	.	16.aLLyy 16.f#/)yy	.	16d\yy	.	16dyy 16F#/yy	.	16.aLLyy 16.f#/)yy	.	16.ff#\LL)yy	.	16.aa\LL)yy	.
.	.	.	.	.	.	.	.	.	.	.	32Ree/yy	.	.	.	.	.	.	.	.	.	.	.	.	.	.
.	.	.	.	.	.	.	.	.	.	.	32Ree/yy	.	.	.	.	16ryy	.	16ryy	.	.	.	.	.	.	.
.	.	.	.	.	32ee#X\JJkyy	.	32gg#X\JJk	.	.	.	32Ree/JJyy	.	.	32g#XJJkyy 32e#X/yy	.	.	.	.	.	32g#X|JJkyy 32e#X/yy	.	32ee#X\JJkyy	.	32gg#X\JJkyy	.
*	*	*	*	*	*	*	*	*	*	*	*Xtremolo	*	*	*	*	*	*	*	*	*	*	*	*	*	*
8D/yy	8AAyy 8DD\yy	.	8Ayy 8D/yy	.	8ff#\Lyy	.	8aa\L	.	8D\yy	.	8Ree/yy	8ryy	.	8aLyy 8f#/yy	.	8D\Lyy	.	8ALyy 8D/yy	.	8a|Lyy 8f#/yy	.	8ff#\Lyy	.	8aa\Lyy	.
8D/Jyy	8AAJyy 8DD\yy	.	8AJyy 8D/yy	.	8dd\Jyy	.	8ff#\J	.	8D\Jyy	.	8Ree/Jyy	8Ra\Jyy	.	8f#Jyy 8d/yy	.	8D\Jyy	.	8AJyy 8D/yy	.	8f#|Jyy 8d/yy	.	8dd\Jyy	.	8ff#\Jyy	.
=24	=24	=24	=24	=24	=24	=24	=24	=24	=24	=24	=24	=24	=24	=24	=24	=24	=24	=24	=24	=24	=24	=24	=24	=24	=24
*	*	*	*	*	*	*	*	*	*	*	*tremolo	*	*	*	*	*	*	*tremolo	*	*	*	*	*	*	*
8D/Lyy	8AALyy 8DD\yy	.	8ALyy 8D/yy	.	8ff#Lyy 8ayy 8d\yy	.	8dddL 8dd 8d\	.	8D\Lyy	.	32Ree/LLLyy	8Ra\Lyy	.	8ddLyy 8f#/yy	.	8DD/Lyy	.	8ALyy 8D/yy	.	8ddLyy 8f#/yy	.	8ff#\Lyy	.	8ddd'\Lyy	.
.	.	.	.	.	.	.	.	.	.	.	32Ree/yy	.	.	.	.	.	.	.	.	.	.	.	.	.	.
.	.	.	.	.	.	.	.	.	.	.	32Ree/yy	.	.	.	.	.	.	.	.	.	.	.	.	.	.
.	.	.	.	.	.	.	.	.	.	.	32Ree/JJyy	.	.	.	.	.	.	.	.	.	.	.	.	.	.
*	*	*	*	*	*	*	*	*	*	*	*Xtremolo	*	*	*	*	*	*	*	*	*	*	*	*	*	*
8D/yy	8AAyy 8DD\yy	.	8Ayy 8D/yy	.	16gg\Lyy	.	16bb\L	.	8D\yy	.	8Ree/yy	8ryy	.	16bLyy 16g/yy	.	8D/yy	.	8Ayy 8D/yy	.	16bLyy 16g/yy	.	16gg\Lyy	.	(y16bb\Lyy	.
.	.	.	.	.	16ff#\Jyy	.	16aa\J	.	.	.	.	.	.	16aJyy 16f#/yy	.	.	.	.	.	16aJyy 16f#/yy	.	16ff#\Jyy	.	16aa\J)yy	.
8D/Jyy	8AAJyy 8DD\yy	.	8AJyy 8D/yy	.	8dd\Jyy	.	8ff#\J	.	8D\Jyy	.	8Ree/Jyy	8Ra\Jyy	.	8f#Jyy 8d/yy	.	8D/Jyy	.	8AJyy 8D/yy	.	8f#Jyy 8d/yy	.	8dd\Jyy	.	8ff#'\Jyy	.
*	*Xtremolo	*	*Xtremolo	*	*	*	*	*	*Xtremolo	*	*	*	*	*	*	*	*	*Xtremolo	*	*	*	*	*	*	*
*v	*v	*	*	*	*	*	*	*	*	*	*	*	*	*	*	*	*	*	*	*	*	*	*	*	*
=25	=25	=25	=25	=25	=25	=25	=25	=25	=25	=25	=25	=25	=25	=25	=25	=25	=25	=25	=25	=25	=25	=25	=25	=25
16.G\LLyy	.	16.g\LLyy	.	16.bLLyy 16.g/yy	.	16.ee\LL	.	16.G\LLyy	.	8ryy	8ryy	.	16.e/LLyy	.	16.G\LLyy	.	8ryy	.	16.eLLyy 16.B/yy	.	16.b\LLyy	.	16.ee\LLyy	.
32E\JJkyy	.	32e\JJkyy	.	32bJJkyy 32g/yy	.	32gg\JJk	.	32E\JJkyy	.	.	.	.	32g/JJkyy	.	32E\JJkyy	.	.	.	32gJJkyy 32B/yy	.	32b\JJkyy	.	32gg\JJkyy	.
!LO:TX:t=P:problem:mixed beam	!	!LO:TX:t=P:problem:mixed beam	!	!	!	!	!	!LO:TX:t=P:problem:mixed beam	!	!	!	!	!	!	!LO:TX:t=P:problem:mixed beam	!	!	!	!	!	!	!	!	!
8A\Lyy	.	8a\Lyy	.	8ddLyy 8f#/yy	.	8ff#\L	.	8A\Lyy	.	8ryy	8ryy	.	8f#/Lyy	.	8A\Lyy	.	8f#Lyy 8d\yy	.	8f#Lyy 8d/yy	.	8dd\Lyy	.	8ff#\Lyy	.
8AA/Jyy	.	8A/Jyy	.	8cc#Jyy 8g/yy	.	8ee\J	.	8AA/Jyy	.	32Ree/LLLyy	8Ra\yy	.	8cc#Jyy 8g/yy	.	8AA/Jyy	.	8eJyy 8A\yy	.	8eJyy 8c#/yy	.	8cc#\Jyy	.	8ee\Jyy	.
.	.	.	.	.	.	.	.	.	.	32Ree/yy	.	.	.	.	.	.	.	.	.	.	.	.	.	.
.	.	.	.	.	.	.	.	.	.	32Ree/yy	.	.	.	.	.	.	.	.	.	.	.	.	.	.
.	.	.	.	.	.	.	.	.	.	32Ree/JJJyy	.	.	.	.	.	.	.	.	.	.	.	.	.	.
=26	=26	=26	=26	=26	=26	=26	=26	=26	=26	=26	=26	=26	=26	=26	=26	=26	=26	=26	=26	=26	=26	=26	=26	=26
*	*	*	*	*	*	*	*	*	*	*	*	*	*	*	*	*	*	*	*^	*	*	*	*	*
16D\yy	.	16d\yy	.	16ddyy 16f#/yy	.	16dd\	.	16D\yy	.	16Ree/yy	8Ra\yy	.	16ddyy 16f#/yy	.	16D\yy	.	16dyy 16F#/yy	.	16d/yy	16d\yy	.	16dd\yy	.	16dd\yy	.
16ryy	.	16ryy	.	16ryy	.	16r	.	16ryy	.	16ryy	.	.	16ryy	.	16ryy	.	16ryy	.	16ryy	16ryy	.	16ryy	.	16ryy	.
8D\yy	.	8f#yy 8Ayy 8D/yy	.	8ddyy 8f#/yy	.	8ddd 8ff#\	.	8D\yy	.	8Ree/yy	8Ra\yy	.	8ddyy 8f#/yy	.	8D\yy	.	8dyy 8F#/yy	.	8ddyy 8f#/yy	8ryy	.	8ff#\yyy	.	8ddd\yy	.
!	!	!	!	!	!	!LO:TX:t=P:problem:fermata na kresce taktowej	!	!	!	!	!	!	!	!	!	!	!	!	!	!	!	!	!	!	!
8ryy	.	8ryy	.	8ryy	.	8r;	.	8ryy	.	8ryy	8ryy	.	8ryy	.	8ryy	.	8ryy	.	8ryy	8ryy	.	8ryy	.	8ryy	.
*	*	*	*	*	*	*	*	*	*	*v	*v	*	*	*	*	*	*	*	*v	*v	*	*	*	*	*
!!LO:PB:g=original
=27:|!|:	=27:|!|:	=27:|!|:	=27:|!|:	=27:|!|:	=27:|!|:	=27:|!|:	=27:|!|:	=27:|!|:	=27:|!|:	=27:|!|:	=27:|!|:	=27:|!|:	=27:|!|:	=27:|!|:	=27:|!|:	=27:|!|:	=27:|!|:	=27:|!|:	=27:|!|:	=27:|!|:	=27:|!|:	=27:|!|:	=27:|!|:
*>C	*>C	*>C	*>C	*>C	*>C	*>C	*>C	*>C	*>C	*>C	*>C	*>C	*>C	*>C	*>C	*>C	*>C	*>C	*>C	*>C	*>C	*>C	*>C
*k[cnf#]	*	*k[cnf#]	*	*k[cnf#]	*	*k[cnf#]	*	*k[cnf#]	*	*	*	*k[cnf#]	*	*k[cnf#]	*	*k[cnf#]	*	*k[cnf#]	*	*k[cnf#]	*	*k[cnf#]	*
!	!LO:DY:rj	!	!	!	!	!	!	!	!	!	!	!	!	!	!LO:DY:rj	!	!	!	!	!	!	!LO:TX:t=P:problem:kolejność znaków ccn ff#	!
8G\	p	16.r	.	16.r	.	4.r	.	4.r	.	4.r	.	16.bLL 16.g/	.	16GG/LL	p	4.r	.	16.b|LL 16.g/	.	4.r	.	4.r	.
.	.	.	.	.	.	.	.	.	.	.	.	.	.	16D/	.	.	.	.	.	.	.	.	.
!	!	!	!	!	!LO:DY:rj	!	!	!	!	!	!	!	!	!	!	!	!	!	!	!	!	!	!
.	.	32A#X/	.	32f#/	p	.	.	.	.	.	.	32a#XJJk 32f#/	.	.	.	.	.	32a#X|JJk 32f#/	.	.	.	.	.
8r	.	8B/L	.	8g/L	.	.	.	.	.	.	.	8bL 8g/	.	16G/	.	.	.	8b|L 8g/	.	.	.	.	.
.	.	.	.	.	.	.	.	.	.	.	.	.	.	16D/	.	.	.	.	.	.	.	.	.
!	!	!	!	!	!	!	!	!	!	!	!	!LO:SIC:v:n=2:s=8an/	!	!	!	!	!	!	!	!	!	!	!
8r	.	8c/J	.	8a/J	.	.	.	.	.	.	.	8ccJ 8a#/	.	16G/	.	.	.	8cc|J 8an/	.	.	.	.	.
.	.	.	.	.	.	.	.	.	.	.	.	.	.	16D/JJ	.	.	.	.	.	.	.	.	.
=28	=28	=28	=28	=28	=28	=28	=28	=28	=28	=28	=28	=28	=28	=28	=28	=28	=28	=28	=28	=28	=28	=28	=28
*	*	*	*	*	*	*	*	*	*	*	*	*^	*	*	*	*	*	*^	*	*	*	*	*
*	*	*	*	*	*	*	*	*	*	*	*	*	*	*	*rep	*	*	*	*	*	*	*	*	*	*
16G\	.	16c#X/	.	16a#X/	.	4.r	.	4.r	.	4.r	.	16cc#X 16a#X/	8ryy	.	16GG/LL	.	4.r	.	16cc#X| 16a#X/	8ryy	.	4.r	.	4.r	.
16r	.	16r	.	16r	.	.	.	.	.	.	.	16r	.	.	16D/	.	.	.	16r	.	.	.	.	.	.
4G^<\	.	4d^<\	.	4b^/	.	.	.	.	.	.	.	4dd/	4b\	.	16G/	.	.	.	4dd/	4b^\	.	.	.	.	.
.	.	.	.	.	.	.	.	.	.	.	.	.	.	.	16D/	.	.	.	.	.	.	.	.	.	.
.	.	.	.	.	.	.	.	.	.	.	.	.	.	.	16G/	.	.	.	.	.	.	.	.	.	.
.	.	.	.	.	.	.	.	.	.	.	.	.	.	.	16D/JJ	.	.	.	.	.	.	.	.	.	.
*	*	*	*	*	*	*	*	*	*	*	*	*	*	*	*Xrep	*	*	*	*	*	*	*	*	*	*
*	*	*	*	*	*	*	*	*	*	*	*	*v	*v	*	*	*	*	*	*v	*v	*	*	*	*	*
=29	=29	=29	=29	=29	=29	=29	=29	=29	=29	=29	=29	=29	=29	=29	=29	=29	=29	=29	=29	=29	=29	=29	=29
8G\	.	16.e\LL	.	16.cc\LL	.	4.r	.	4.r	.	4.r	.	16.eeLL 16.ccn\	.	16GG/LL	.	4.r	.	16.eeLL 16.ccn|\	.	4.r	.	4.r	.
.	.	.	.	.	.	.	.	.	.	.	.	.	.	16E/	.	.	.	.	.	.	.	.	.
.	.	32g\JJk	.	32ee\JJk	.	.	.	.	.	.	.	32ggJJk 32ee\	.	.	.	.	.	32ggJJk 32ee|\	.	.	.	.	.
8r	.	8f#\L	.	8dd\L	.	.	.	.	.	.	.	8ff#L 8dd\	.	16G/	.	.	.	8ff#|L 8dd\	.	.	.	.	.
.	.	.	.	.	.	.	.	.	.	.	.	.	.	16E/	.	.	.	.	.	.	.	.	.
8r	.	8e\J	.	8cc\J	.	.	.	.	.	.	.	8eeJ 8cc\	.	16G/	.	.	.	8ee|J 8cc\	.	.	.	.	.
.	.	.	.	.	.	.	.	.	.	.	.	.	.	16E/JJ	.	.	.	.	.	.	.	.	.
=30	=30	=30	=30	=30	=30	=30	=30	=30	=30	=30	=30	=30	=30	=30	=30	=30	=30	=30	=30	=30	=30	=30	=30
*	*	*	*	*	*	*	*	*	*	*	*	*	*	*	*	*	*	*^	*	*	*	*	*
16GG/	.	16d\	.	16b/	.	4.r	.	4.r	.	4.r	.	16dd 16b\	.	16GG/LL	.	4.r	.	16dd 16b|\	8ryy	.	4.r	.	4.r	.
16r	.	16r	.	16r	.	.	.	.	.	.	.	16r	.	16D/	.	.	.	16r	.	.	.	.	.	.
4G^<\	.	4B^/	.	4g^/	.	.	.	.	.	.	.	4b 4g/	.	16G/	.	.	.	4b|/	4g\	.	.	.	.	.
.	.	.	.	.	.	.	.	.	.	.	.	.	.	16D/	.	.	.	.	.	.	.	.	.	.
.	.	.	.	.	.	.	.	.	.	.	.	.	.	16G/	.	.	.	.	.	.	.	.	.	.
.	.	.	.	.	.	.	.	.	.	.	.	.	.	16D/JJ	.	.	.	.	.	.	.	.	.	.
*	*	*	*	*	*	*	*	*	*	*	*	*	*	*	*	*	*	*v	*v	*	*	*	*	*
=31	=31	=31	=31	=31	=31	=31	=31	=31	=31	=31	=31	=31	=31	=31	=31	=31	=31	=31	=31	=31	=31	=31	=31
*	*	*	*	*	*	*	*	*	*	*^	*	*^	*	*	*	*	*	*	*	*	*	*	*
!	!	!	!	!	!	!	!	!	!LO:DY:rj	!	!	!	!	!	!	!	!	!	!	!	!	!	!	!	!
8D\	.	8r	.	8r	.	(16eeeLL 16ee\	.	8D\	p	8r	4.rGG	.	(16ee/LL	8r	.	8D\	.	8r	.	8r	.	(16ee\LL	.	(16eee\LL	.
.	.	.	.	.	.	16dddJJ 16dd\)	.	.	.	.	.	.	16dd/JJ)	.	.	.	.	.	.	.	.	16dd\JJ)	.	16ddd\JJ)	.
*	*	*	*	*	*	*	*	*	*	*tremolo	*	*	*	*	*	*	*	*	*	*	*	*	*	*	*
8r	.	8d\L	.	8e#XL 8B/	.	8gg#XL 8g#X\	.	8r	.	32Ree/LLL	.	.	8g#X'/L	8d\L	.	8r	.	8dL 8D/	.	8bL 8e#X/	.	8g#X'/L	.	8gg#X'\L	.
.	.	.	.	.	.	.	.	.	.	32Ree/	.	.	.	.	.	.	.	.	.	.	.	.	.	.	.
.	.	.	.	.	.	.	.	.	.	32Ree/	.	.	.	.	.	.	.	.	.	.	.	.	.	.	.
.	.	.	.	.	.	.	.	.	.	32Ree/JJ	.	.	.	.	.	.	.	.	.	.	.	.	.	.	.
*	*	*	*	*	*	*	*	*	*	*Xtremolo	*	*	*	*	*	*	*	*	*	*	*	*	*	*	*
8r	.	8d\J	.	8f#J 8A/	.	8aaJ 8a\	.	8r	.	8Ree/J	.	.	8a'/J	8d\J	.	8r	.	8dJ 8D/	.	8aJ 8f#/	.	8a'/J	.	8aa'\J	.
!!LO:PB:g=original
=32	=32	=32	=32	=32	=32	=32	=32	=32	=32	=32	=32	=32	=32	=32	=32	=32	=32	=32	=32	=32	=32	=32	=32	=32	=32
*	*	*	*	*	*	*	*	*	*	*	*	*	*	*	*	*	*	*^	*	*	*	*	*	*	*
8GG/	.	8r	.	8r	.	(16eeeLL 16ee\	.	8GG/	.	8r	4.rGG	.	(16ee/LL	8r	.	8GG/	.	8r	8ryy	.	8r	.	(16ee\LL	.	(16eee\LL	.
.	.	.	.	.	.	16dddJJ 16dd\)	.	.	.	.	.	.	16dd/JJ)	.	.	.	.	.	.	.	.	.	16dd\JJ)	.	16ddd\JJ)	.
*	*	*	*	*	*	*	*	*	*	*tremolo	*	*	*	*	*	*	*	*	*	*	*	*	*	*	*	*
8r	.	8gL 8G/	.	8eL 8c#X/	.	8aa#XL 8a#X\	.	8r	.	32Ree/LLL	.	.	8a#X/L	8e\L	.	8r	.	8e/L	8c\L	.	8gL 8c#X/	.	8a#X/L	.	8aa#X\L	.
.	.	.	.	.	.	.	.	.	.	32Ree/	.	.	.	.	.	.	.	.	.	.	.	.	.	.	.	.
.	.	.	.	.	.	.	.	.	.	32Ree/	.	.	.	.	.	.	.	.	.	.	.	.	.	.	.	.
.	.	.	.	.	.	.	.	.	.	32Ree/JJ	.	.	.	.	.	.	.	.	.	.	.	.	.	.	.	.
*	*	*	*	*	*	*	*	*	*	*Xtremolo	*	*	*	*	*	*	*	*	*	*	*	*	*	*	*	*
8r	.	8gJ 8G/	.	8d/J	.	8bbJ 8b\	.	8r	.	8Ree/J	.	.	8b/J	8d\J	.	8r	.	8d/J	8d\J	.	8f#J 8d/	.	8b/J	.	8bb\J	.
*	*	*	*	*	*	*	*	*	*	*v	*v	*	*	*	*	*	*	*v	*v	*	*	*	*	*	*	*
*	*	*	*	*	*	*	*	*	*	*	*	*v	*v	*	*	*	*	*	*	*	*	*	*	*
=33	=33	=33	=33	=33	=33	=33	=33	=33	=33	=33	=33	=33	=33	=33	=33	=33	=33	=33	=33	=33	=33	=33	=33
8AA/	.	8r	.	8r	.	16.aaLL 16.a\	.	8AA/	.	4.r	.	4.r	.	8AA/	.	8r	.	8r	.	16.a/LL	.	16.aa\LL	.
.	.	.	.	.	.	32bbJJk 32b\	.	.	.	.	.	.	.	.	.	.	.	.	.	32b/JJk	.	32bb\JJk	.
8r	.	8eL 8c#X\	.	8gL 8A/	.	8aaL 8a\	.	8r	.	.	.	.	.	8r	.	8eL 8A/	.	8gL 8c#X/	.	8a/L	.	8aa\L	.
8r	.	8eJ 8c#\	.	8gJ 8A/	.	8eeJ 8e\	.	8r	.	.	.	.	.	8r	.	8eJ 8A/	.	8gJ 8c#/	.	8e/J	.	8ee\J	.
=34	=34	=34	=34	=34	=34	=34	=34	=34	=34	=34	=34	=34	=34	=34	=34	=34	=34	=34	=34	=34	=34	=34	=34
.	.	.	.	.	.	(8qgg 8qg/	.	.	.	.	.	.	.	.	.	.	.	.	.	8qg/	.	8qgg/	.
16D\	.	8r	.	8r	.	16.ff#LL 16.f#/)	.	16D\	.	4.r	.	4.r	.	16D\	.	8r	.	8r	.	16.f#/LL	.	16.ff#\LL	.
16r	.	.	.	.	.	.	.	16r	.	.	.	.	.	16r	.	.	.	.	.	.	.	.	.
.	.	.	.	.	.	32ee|JJk 32e/	.	.	.	.	.	.	.	.	.	.	.	.	.	32e/JJk	.	32ee\JJk	.
4D^\	.	4d\	.	4f# 4A^/	.	4dd 4d^/	.	4D\	.	.	.	.	.	4d\	.	4e 4A^/	.	4f# 4d^/	.	4d^/	.	4dd^<\	.
=35:|!|:	=35:|!|:	=35:|!|:	=35:|!|:	=35:|!|:	=35:|!|:	=35:|!|:	=35:|!|:	=35:|!|:	=35:|!|:	=35:|!|:	=35:|!|:	=35:|!|:	=35:|!|:	=35:|!|:	=35:|!|:	=35:|!|:	=35:|!|:	=35:|!|:	=35:|!|:	=35:|!|:	=35:|!|:	=35:|!|:	=35:|!|:
*>D	*>D	*>D	*>D	*>D	*>D	*>D	*>D	*>D	*>D	*>D	*>D	*>D	*>D	*>D	*>D	*>D	*>D	*>D	*>D	*>D	*>D	*>D	*>D
*	*	*	*	*	*	*	*	*	*	*^	*	*	*	*	*	*	*	*	*	*	*	*	*
!	!LO:DY:rj	!	!	!	!LO:DY:rj	!	!LO:DY:rj	!	!LO:DY:rj	!	!	!LO:DY:rj	!LO:TX:a:t=due	!LO:DY:rj	!	!	!	!LO:DY:a	!	!	!	!	!	!LO:DY:rj
8D\	f	8r	.	8r	f	8.ddL 8.d/	f	8D\	f	8r	4C\	f	8.d/L	f	8r	.	8r	f	8r	.	8.d/L	.	8.dd\L	f
*	*	*	*	*	*	*	*	*	*	*tremolo	*	*	*	*	*	*	*	*	*	*	*	*	*	*
8r	.	8dL 8A\	.	8f#L 8c/	.	.	.	8r	.	32Ree/LLL	.	.	.	.	8A\L	.	8dL 8D/	.	8f#L 8c/	.	.	.	.	.
.	.	.	.	.	.	.	.	.	.	32Ree/	.	.	.	.	.	.	.	.	.	.	.	.	.	.
.	.	.	.	.	.	16eeL 16e/	.	.	.	32Ree/	.	.	16e/L	.	.	.	.	.	.	.	16e/L	.	16ee\L	.
.	.	.	.	.	.	.	.	.	.	32Ree/JJ	.	.	.	.	.	.	.	.	.	.	.	.	.	.
*	*	*	*	*	*	*	*	*	*	*Xtremolo	*	*	*	*	*	*	*	*	*	*	*	*	*	*
8r	.	8dJ 8A\	.	8f#J 8c/	.	16ff# 16f#/	.	8r	.	8Ree/J	8rFF	.	16f#/	.	8A\J	.	8dJ 8D/	.	8f#J 8c/	.	16f#/	.	16ff#\	.
.	.	.	.	.	.	16aaJJ 16a/	.	.	.	.	.	.	16a/JJ	.	.	.	.	.	.	.	16a/JJ	.	16aa\JJ	.
=36	=36	=36	=36	=36	=36	=36	=36	=36	=36	=36	=36	=36	=36	=36	=36	=36	=36	=36	=36	=36	=36	=36	=36	=36
*	*	*	*	*	*	*	*	*	*	*rep	*rep	*	*	*	*	*	*	*	*	*	*	*	*	*
8GG/	.	8r	.	8r	.	16bb 16b\	.	8GG/	.	8r	4C\	.	16b/	.	8r	.	8r	.	8r	.	16b/	.	16bb\	.
.	.	.	.	.	.	16r	.	.	.	.	.	.	16r	.	.	.	.	.	.	.	16r	.	16r	.
*	*	*	*	*	*	*	*	*	*	*tremolo	*	*	*	*	*	*	*	*	*	*	*	*	*	*
8r	.	8dL 8G\	.	8gL 8B/	.	8ggL 8g\	.	8r	.	32Ree/LLL	.	.	8g/L	.	8G\L	.	8dL 8D/	.	8gL 8B/	.	8g/	.	8gg'\L	.
.	.	.	.	.	.	.	.	.	.	32Ree/	.	.	.	.	.	.	.	.	.	.	.	.	.	.
.	.	.	.	.	.	.	.	.	.	32Ree/	.	.	.	.	.	.	.	.	.	.	.	.	.	.
.	.	.	.	.	.	.	.	.	.	32Ree/JJ	.	.	.	.	.	.	.	.	.	.	.	.	.	.
*	*	*	*	*	*	*	*	*	*	*Xtremolo	*	*	*	*	*	*	*	*	*	*	*	*	*	*
.	.	.	.	.	.	(<8qccc#X 8qcc#X/	.	.	.	.	.	.	.	.	.	.	.	.	.	.	(8qcc#X/	.	(8qccc#X/	.
8r	.	8dJ 8G\	.	8gJ 8B/	.	8dddJ 8dd\)	.	8r	.	8Ree/J	8rFF	.	8dd|>/J	.	8G\J	.	8dJ 8D/	.	8gJ 8B/	.	8dd\)	.	8ddd\J)	.
*	*	*	*	*	*	*	*	*	*	*Xrep	*Xrep	*	*	*	*	*	*	*	*	*	*	*	*	*
*	*	*	*	*	*	*	*	*	*	*v	*v	*	*	*	*	*	*	*	*	*	*	*	*	*
!!LO:PB:g=original
=37	=37	=37	=37	=37	=37	=37	=37	=37	=37	=37	=37	=37	=37	=37	=37	=37	=37	=37	=37	=37	=37	=37	=37
!	!	!	!	!	!	!	!	!	!	!	!	!	!	!	!	!	!	!	!	!LO:TX:a:t=col Picolo 8va baſsa	!	!	!
8D\	.	8r	.	8r	.	(16dddLL 16dd\	.	8D\	.	4.r	.	(16dd\LL	.	8r	.	8r	.	8r	.	(y16dd\LLyy	.	(16ddd\LL	.
.	.	.	.	.	.	16ccc#XJJ 16cc#X\	.	.	.	.	.	16cc#X\JJ	.	.	.	.	.	.	.	16cc#X\JJ)yy	.	16ccc#X\JJ)	.
8r	.	8dL 8A\	.	8f#L 8c/	.	8cccnL 8ccn\)	.	8r	.	.	.	8ccn\L)	.	8A\L	.	8dL 8D/	.	8f#L 8c/	.	8ccn\Lyy	.	8cccn\L	.
8r	.	8dJ 8A\	.	8f#J 8c/	.	8aaJ 8a'\	.	8r	.	.	.	8a'\J	.	8A\J	.	8dJ 8D/	.	8f#J 8c/	.	8a'\Jyy	.	8aa'\J	.
=38	=38	=38	=38	=38	=38	=38	=38	=38	=38	=38	=38	=38	=38	=38	=38	=38	=38	=38	=38	=38	=38	=38	=38
*	*	*	*	*	*	*	*	*	*	*	*	*	*	*	*	*rep	*	*	*	*	*	*	*
.	.	.	.	.	.	(<8qccc 8qcc/	.	.	.	.	.	8qcc/	.	.	.	.	.	.	.	(y8qcc/yy	.	(8qccc/	.
8G\	.	8r	.	8r	.	16.bbLL 16.b\)	.	8G\	.	4.r	.	16.b/LL	.	8r	.	8r	.	8r	.	16.b/LL)yy	.	16.bb\LL)	.
.	.	.	.	.	.	32aa|JJk 32a\	.	.	.	.	.	32a/JJk	.	.	.	.	.	.	.	32a/JJk|yy	.	32aa\JJk|	.
8r	.	8dL 8G\	.	8gL 8B/	.	8bbL 8b'\	.	8r	.	.	.	8b/L	.	8G\L	.	8dL 8D/	.	8gL 8B/	.	8b/L|yy	.	8bb\L|	.
8r	.	8dJ 8G\	.	8gJ 8B/	.	8ggJ 8g'\	.	8r	.	.	.	8g/J	.	8G\J	.	8dJ 8D/	.	8gJ 8B/	.	8g/J|yy	.	8gg\J|	.
*	*	*	*	*	*	*	*	*	*	*	*	*	*	*	*	*Xrep	*	*	*	*	*	*	*
=39	=39	=39	=39	=39	=39	=39	=39	=39	=39	=39	=39	=39	=39	=39	=39	=39	=39	=39	=39	=39	=39	=39	=39
*	*	*	*	*	*	*	*	*	*	*^	*	*	*	*	*	*	*	*	*	*	*	*	*
*	*	*	*	*	*	*	*	*	*	*	*	*	*	*	*	*	*rep	*	*	*	*	*	*	*
8D\	.	8r	.	8r	.	(8.ddL 8.d\	.	8D\	.	8r	4C\	.	(8.d/L	.	8r	.	8r	.	8r	.	(y8.d/Lyy	.	(8.dd\L	.
*	*	*	*	*	*	*	*	*	*	*tremolo	*	*	*	*	*	*	*	*	*	*	*	*	*	*
8r	.	8dL 8A/	.	8f#L 8c/	.	.	.	8r	.	32Ree/LLL	.	.	.	.	8A\L	.	8dL 8D/	.	8f#L 8c/	.	.	.	.	.
.	.	.	.	.	.	.	.	.	.	32Ree/	.	.	.	.	.	.	.	.	.	.	.	.	.	.
.	.	.	.	.	.	16eeL 16e\	.	.	.	32Ree/	.	.	16e/L	.	.	.	.	.	.	.	16e/Lyy	.	16ee\L	.
.	.	.	.	.	.	.	.	.	.	32Ree/JJ	.	.	.	.	.	.	.	.	.	.	.	.	.	.
*	*	*	*	*	*	*	*	*	*	*Xtremolo	*	*	*	*	*	*	*	*	*	*	*	*	*	*
8r	.	8dJ 8A/	.	8f#J 8c/	.	16ff# 16f#\	.	8r	.	8Ree/J	8rFF	.	16f#/	.	8A\J	.	8dJ 8D/	.	8f#J 8c/	.	16f#/yy	.	16ff#\	.
.	.	.	.	.	.	16aaJJ 16a\	.	.	.	.	.	.	16a/JJ)	.	.	.	.	.	.	.	16a/JJ)yy	.	16aa\JJ)	.
*	*	*	*	*	*	*	*	*	*	*	*	*	*	*	*	*	*Xrep	*	*	*	*	*	*	*
=40	=40	=40	=40	=40	=40	=40	=40	=40	=40	=40	=40	=40	=40	=40	=40	=40	=40	=40	=40	=40	=40	=40	=40	=40
*	*	*	*	*	*	*	*	*	*	*	*	*	*	*	*	*	*rep	*	*	*	*	*	*	*
8GG/	.	8r	.	8r	.	16.bbLL 16.b\)	.	8GG/	.	8r	4C\	.	16.b/LL	.	8r	.	8r	.	8r	.	16.b/LLyy	.	16.bb\LL	.
.	.	.	.	.	.	32gg|JJk 32g\	.	.	.	.	.	.	32g|/JJk	.	.	.	.	.	.	.	32g/JJk|yy	.	32gg\JJk|	.
*	*	*	*	*	*	*	*	*	*	*tremolo	*	*	*	*	*	*	*	*	*	*	*	*	*	*
8r	.	8dL 8G/	.	8gL 8B/	.	(8eeeL 8ee\	.	8r	.	32Ree/LLL	.	.	(8ee\L	.	8G\L	.	8dL 8D/	.	8gL 8B/	.	(y8ee\Lyy	.	(8eee\L	.
.	.	.	.	.	.	.	.	.	.	32Ree/	.	.	.	.	.	.	.	.	.	.	.	.	.	.
.	.	.	.	.	.	.	.	.	.	32Ree/	.	.	.	.	.	.	.	.	.	.	.	.	.	.
.	.	.	.	.	.	.	.	.	.	32Ree/JJ	.	.	.	.	.	.	.	.	.	.	.	.	.	.
*	*	*	*	*	*	*	*	*	*	*Xtremolo	*	*	*	*	*	*	*	*	*	*	*	*	*	*
8r	.	8dJ 8G/	.	8gJ 8B/	.	8dddJ 8dd\)	.	8r	.	8Ree/J	8rFF	.	8dd\J)	.	8G\J	.	8dJ 8D/	.	8gJ 8B/	.	8dd\J)yyy	.	8ddd\J)	.
*	*	*	*	*	*	*	*	*	*	*	*	*	*	*	*	*	*Xrep	*	*	*	*	*	*	*
=41	=41	=41	=41	=41	=41	=41	=41	=41	=41	=41	=41	=41	=41	=41	=41	=41	=41	=41	=41	=41	=41	=41	=41	=41
*tremolo	*	*tremolo	*	*tremolo	*	*	*	*	*	*	*	*	*	*	*	*	*	*	*	*	*	*	*	*
8D\L	.	8dL 8A\	.	8f#L 8c/	.	(16eeeLL 16ee\	.	4.D\	.	4.ReeTT/	8C\L	.	(16ee\LL	.	4A.\L	.	4.d 4.D/	.	4.f# 4.c/	.	(y16ee\LLyy	.	(16eee\LL	.
.	.	.	.	.	.	16dddJJ 16dd\)	.	.	.	.	.	.	16dd\JJ)	.	.	.	.	.	.	.	16dd\JJ)yy	.	16ddd\JJ)	.
8D\	.	8d 8A\	.	8f# 8c/	.	(16ccc#XLL 16cc#X\	.	.	.	.	8C\	.	(16cc#X\LL	.	.	.	.	.	.	.	(y16cc#X\LLyy	.	(16ccc#X\LL	.
.	.	.	.	.	.	16dddJJ 16dd\)	.	.	.	.	.	.	16dd\JJ)	.	.	.	.	.	.	.	16dd\JJ)yy	.	16ddd\JJ)	.
8D\J	.	8dJ 8A\	.	8f#J 8c/	.	16cccnLL 16ccn|\	.	.	.	.	8C\J	.	16ccn\LL	.	.	.	.	.	.	.	16ccn'\LLyy	.	16cccn'\LL	.
*Xtremolo	*	*Xtremolo	*	*Xtremolo	*	*	*	*	*	*	*	*	*	*	*	*	*	*	*	*	*	*	*	*
.	.	.	.	.	.	16aaJJ 16a|\	.	.	.	.	.	.	16a\JJ	.	.	.	.	.	.	.	16a'\JJyy	.	16aa'\JJ	.
!!LO:PB:g=original
=42	=42	=42	=42	=42	=42	=42	=42	=42	=42	=42	=42	=42	=42	=42	=42	=42	=42	=42	=42	=42	=42	=42	=42	=42
16G\	.	16d 16G/	.	16g 16B/	.	16gg 16b\	.	16G\	.	16Ree/	16C\	.	16g/	.	16G\	.	16d 16D/	.	16g 16B/	.	16g/	.	16gg\	.
16r	.	16r	.	16r	.	16r	.	16r	.	16r	16ryy	.	16r	.	16r	.	16r	.	16r	.	16r	.	16r	.
!LO:TX:a:i:t=Da capo\nmazur\nal fine\na poi la\nCoda	!	!	!	!	!	!	!	!	!	!	!	!	!	!	!	!	!	!	!	!	!	!	!	!
4GG/	.	4d 4G/	.	4g 4B/	.	4gg 4b 4d\	.	4G\	.	4Ree/	4C\	.	4gg 4b\	.	4GG/	.	4d 4D/	.	4gg 4b\	.	4gg\	.	4ggg\	.
*	*	*	*	*	*	*	*	*	*	*v	*v	*	*	*	*	*	*	*	*	*	*	*	*	*
=43:|!	=43:|!	=43:|!	=43:|!	=43:|!	=43:|!	=43:|!	=43:|!	=43:|!	=43:|!	=43:|!	=43:|!	=43:|!	=43:|!	=43:|!	=43:|!	=43:|!	=43:|!	=43:|!	=43:|!	=43:|!	=43:|!	=43:|!	=43:|!
*>E	*>E	*>E	*>E	*>E	*>E	*>E	*>E	*>E	*>E	*>E	*>E	*>E	*>E	*>E	*>E	*>E	*>E	*>E	*>E	*>E	*>E	*>E	*>E
*k[f#c#]	*	*k[f#c#]	*	*k[f#c#]	*	*k[f#c#]	*	*k[f#c#]	*	*	*	*k[f#c#]	*	*k[f#c#]	*	*k[f#c#]	*	*k[f#c#]	*	*k[f#c#]	*	*k[f#c#]	*
*	*	*	*	*	*	*	*	*	*	*^	*	*	*	*	*	*^	*	*	*	*	*	*	*
!	!	!	!	!	!	!	!	!	!	!	!	!	!	!	!	!	!	!	!	!	!	!	!	!LO:TX:a:t=Coda	!
8D/L	.	8f#L 8A\	.	8ddL 8f#/	.	8dddL 8dd\	.	8D/L	.	8Ree/L	4Ra\	.	8ddL 8f#/	.	8d\L	.	8d/L	8d 8F#\L	.	8aL 8f#/	.	8dd\L	.	8ddd\L	.
*	*	*	*	*	*	*	*	*	*	*tremolo	*	*	*	*	*	*	*	*	*	*	*	*	*	*	*
8BB/	.	8f# 8B\	.	8dd 8f#/	.	8ddd 8dd\	.	8BB/	.	32Ree/LL	.	.	8dd 8f#/	.	8B\	.	8f#/	8d\	.	8dd 8f#/	.	8dd\	.	8ddd\	.
.	.	.	.	.	.	.	.	.	.	32Ree/	.	.	.	.	.	.	.	.	.	.	.	.	.	.	.
.	.	.	.	.	.	.	.	.	.	32Ree/	.	.	.	.	.	.	.	.	.	.	.	.	.	.	.
.	.	.	.	.	.	.	.	.	.	32Ree/JJ	.	.	.	.	.	.	.	.	.	.	.	.	.	.	.
*	*	*	*	*	*	*	*	*	*	*Xtremolo	*	*	*	*	*	*	*	*	*	*	*	*	*	*	*
8GG/J	.	8gJ 8B\	.	8bJ 8g/	.	8eeeJ 8ee\	.	8GG/J	.	8Ree/J	8rFF	.	8eeJ 8g/	.	8G\J	.	8e/J	8e\J	.	8bJ 8g/	.	8ee\J	.	8eee\J	.
*	*	*	*	*	*	*	*	*	*	*	*	*	*	*	*	*	*v	*v	*	*	*	*	*	*	*
=44	=44	=44	=44	=44	=44	=44	=44	=44	=44	=44	=44	=44	=44	=44	=44	=44	=44	=44	=44	=44	=44	=44	=44	=44
*	*	*	*	*	*	*	*	*	*	*	*	*	*^	*	*	*	*	*	*^	*	*	*	*	*
*	*	*	*	*	*	*	*	*	*	*rep	*rep	*	*	*	*	*	*	*	*	*	*	*	*	*	*	*
!	!	!	!	!	!	!	!	!	!	!	!	!	!	!	!	!LO:TX:t=P:problem:mixed beam	!	!	!	!	!	!	!	!	!	!
8AA/L	.	8eL 8A\	.	8aL 8g/	.	16.aaLL 16.a\	.	8AA/L	.	8Ree/L	4Ra\	.	16.a/LL	16.a\LL	.	8A\L	.	8eL 8A/	.	16.a/LL	8g\L	.	8gg\L	.	16.aa\LL	.
.	.	.	.	.	.	32ccc#JJk 32cc#\	.	.	.	.	.	.	32cc#/JJk	32cc#\JJk	.	.	.	.	.	32cc#/JJk	.	.	.	.	32ccc#\JJk	.
*	*	*	*	*	*	*	*	*	*	*tremolo	*	*	*	*	*	*	*	*	*	*	*	*	*	*	*	*
8AA/	.	8c#\	.	8a 8g/	.	8eeeL 8ee\	.	8AA/	.	32Ree/LL	.	.	8ee/L	8cc#\L	.	8AA/	.	8e 8A/	.	8ee/L	8g\	.	8gg\	.	8eee\L	.
.	.	.	.	.	.	.	.	.	.	32Ree/	.	.	.	.	.	.	.	.	.	.	.	.	.	.	.	.
.	.	.	.	.	.	.	.	.	.	32Ree/	.	.	.	.	.	.	.	.	.	.	.	.	.	.	.	.
.	.	.	.	.	.	.	.	.	.	32Ree/JJ	.	.	.	.	.	.	.	.	.	.	.	.	.	.	.	.
*	*	*	*	*	*	*	*	*	*	*Xtremolo	*	*	*	*	*	*	*	*	*	*	*	*	*	*	*	*
8D/J	.	8d\J	.	8aJ 8f#/	.	8dddJ 8dd\	.	8D/J	.	8Ree/J	8rFF	.	8dd/J	8dd\J	.	8D/J	.	8f#J 8d/	.	8dd/J	8f#\J	.	8ff#\J	.	8ddd\J	.
*	*	*	*	*	*	*	*	*	*	*Xrep	*Xrep	*	*	*	*	*	*	*	*	*	*	*	*	*	*	*
*	*	*	*	*	*	*	*	*	*	*	*	*	*v	*v	*	*	*	*	*	*v	*v	*	*	*	*	*
=45	=45	=45	=45	=45	=45	=45	=45	=45	=45	=45	=45	=45	=45	=45	=45	=45	=45	=45	=45	=45	=45	=45	=45	=45
*	*	*	*	*	*	*	*	*	*	*rep	*rep	*	*	*	*	*	*	*	*	*	*	*	*	*
8D/L	.	8d\L	.	8aL 8f#/	.	8fff#L 8ff#\	.	8D/L	.	8Ree/L	4Ra\	.	8ff#L 8dd\	.	8d\L	.	8f#L 8d\	.	8ddL 8f#/	.	8ff#\L	.	8fff#\L	.
*	*	*	*	*	*	*	*	*	*	*tremolo	*	*	*	*	*	*	*	*	*	*	*	*	*	*
8BB/	.	8f# 8B\	.	8dd 8f#/	.	8ddd 8dd\	.	8BB/	.	32Ree/LL	.	.	8dd 8f#\	.	8B\	.	8f# 8d\	.	8dd 8f#/	.	8dd\	.	8fff#\	.
.	.	.	.	.	.	.	.	.	.	32Ree/	.	.	.	.	.	.	.	.	.	.	.	.	.	.
.	.	.	.	.	.	.	.	.	.	32Ree/	.	.	.	.	.	.	.	.	.	.	.	.	.	.
.	.	.	.	.	.	.	.	.	.	32Ree/JJ	.	.	.	.	.	.	.	.	.	.	.	.	.	.
*	*	*	*	*	*	*	*	*	*	*Xtremolo	*	*	*	*	*	*	*	*	*	*	*	*	*	*
8GG/J	.	8gJ 8B\	.	8bJ 8g/	.	8eeeJ 8ee\	.	8GG/J	.	8Ree/J	8rFF	.	8eeJ 8g\	.	8G\J	.	8e\J	.	8bJ 8g/	.	8ee\J	.	8ggg\J	.
*	*	*	*	*	*	*	*	*	*	*Xrep	*Xrep	*	*	*	*	*	*	*	*	*	*	*	*	*
=46	=46	=46	=46	=46	=46	=46	=46	=46	=46	=46	=46	=46	=46	=46	=46	=46	=46	=46	=46	=46	=46	=46	=46	=46
*	*	*	*	*	*	*	*	*	*	*	*	*	*^	*	*	*	*	*	*^	*	*	*	*	*
*	*	*	*	*	*	*	*	*	*	*rep	*rep	*	*	*	*	*	*	*	*	*	*	*	*	*	*	*
!	!	!	!	!	!	!	!	!	!	!	!	!	!	!	!	!LO:TX:t=P:problem:mixed beam	!	!	!	!	!	!	!	!	!	!
8AA/L	.	8eL 8A\	.	8aL 8g/	.	16.aaLL 16.a\	.	8AA/L	.	8Ree/L	4Ra\	.	16.a/LL	16.a\LL	.	8A\L	.	8eL 8A/	.	16.a/LL	8g\L	.	8gg\L	.	16.aa\LL	.
.	.	.	.	.	.	32ccc#JJk 32cc#\	.	.	.	.	.	.	32cc#/JJk	32cc#\JJk	.	.	.	.	.	32cc#/JJk	.	.	.	.	32ccc#\JJk	.
*	*	*	*	*	*	*	*	*	*	*tremolo	*	*	*	*	*	*	*	*	*	*	*	*	*	*	*	*
8AA/	.	8c#\	.	8a 8g/	.	8eeeL 8ee\	.	8AA/	.	32Ree/LL	.	.	8ee/L	8cc#\L	.	8AA/	.	8e 8A/	.	8ee/L	8g\	.	8gg\	.	8eee\L	.
.	.	.	.	.	.	.	.	.	.	32Ree/	.	.	.	.	.	.	.	.	.	.	.	.	.	.	.	.
.	.	.	.	.	.	.	.	.	.	32Ree/	.	.	.	.	.	.	.	.	.	.	.	.	.	.	.	.
.	.	.	.	.	.	.	.	.	.	32Ree/JJ	.	.	.	.	.	.	.	.	.	.	.	.	.	.	.	.
*	*	*	*	*	*	*	*	*	*	*Xtremolo	*	*	*	*	*	*	*	*	*	*	*	*	*	*	*	*
8D/J	.	8d\J	.	8aJ 8f#/	.	8dddJ 8dd\	.	8D/J	.	8Ree/J	8rFF	.	8dd/J	8dd\J	.	8D/J	.	8f#J 8d/	.	8dd/J	8f#\J	.	8ff#\J	.	8ddd\J	.
*	*	*	*	*	*	*	*	*	*	*Xrep	*Xrep	*	*	*	*	*	*	*	*	*	*	*	*	*	*	*
*	*	*	*	*	*	*	*	*	*	*	*	*	*v	*v	*	*	*	*	*	*	*	*	*	*	*	*
!!LO:PB:g=original
=47	=47	=47	=47	=47	=47	=47	=47	=47	=47	=47	=47	=47	=47	=47	=47	=47	=47	=47	=47	=47	=47	=47	=47	=47	=47
.	.	.	.	.	.	.	.	.	.	16qqRee/LL	.	.	.	.	.	.	.	.	.	.	.	.	.	.	.
!	!	!	!	!	!	!	!	!	!	!	!	!	!	!	!	!	!	!	!	!	!	!LO:TX:a:t=Col Picolo //	!	!	!
.	.	.	.	.	.	(>8qa/	.	.	.	16qqRee/JJ	.	.	.	.	.	.	.	.	.	.	.	(y>8qa/yy	.	(>8qa/	.
*	*	*tremolo	*	*tremolo	*	*	*	*	*	*	*	*	*	*	*	*	*	*	*	*	*	*	*	*	*
8AA/L	.	8c#L 8E/	.	8aL 8g/	.	8.aa\L)	.	8AA/L	.	8Ree/	8Ra\	.	8.a/L	.	4.c#\	.	4.e 4.A/	.	4.a/	4.g\	.	8.aa\L)yy	.	8.aa\L)	.
8C#/	.	8c# 8E/	.	8a 8g/	.	.	.	8C#/	.	8r	8ryy	.	.	.	.	.	.	.	.	.	.	.	.	.	.
.	.	.	.	.	.	(16gg#X\L	.	.	.	.	.	.	(16g#X/L	.	.	.	.	.	.	.	.	(y16gg#X\Lyy	.	(16gg#X\L	.
8AA/J	.	8c#J 8E/	.	8aJ 8g/	.	16ggn\	.	8AA/J	.	8r	8ryy	.	16gn/	.	.	.	.	.	.	.	.	16ggn\yy	.	16ggn\	.
.	.	.	.	.	.	16ee\JJ)	.	.	.	.	.	.	16e/JJ)	.	.	.	.	.	.	.	.	16ee\JJ)yy	.	16ee\JJ)	.
=48	=48	=48	=48	=48	=48	=48	=48	=48	=48	=48	=48	=48	=48	=48	=48	=48	=48	=48	=48	=48	=48	=48	=48	=48	=48
*tremolo	*	*	*	*	*	*	*	*tremolo	*	*	*tremolo	*	*	*	*	*	*	*	*	*	*	*	*	*	*
8D\L	.	8dL 8F#/	.	8aL 8f#/	.	16.dd|\LL	.	8D\L	.	8Ree/L	8Ra\L	.	16.d/LL	.	4.d\	.	4.d 4.A/	.	4.a/	4.f#\	.	16.dd\LLyy	.	16.dd\LL	.
.	.	.	.	.	.	32ee|\JJk	.	.	.	.	.	.	32e/JJk	.	.	.	.	.	.	.	.	32ee\JJkyy	.	32ee\JJk	.
*	*	*	*	*	*	*	*	*	*	*tremolo	*	*	*	*	*	*	*	*	*	*	*	*	*	*	*
8D\	.	8d 8F#/	.	8a 8f#/	.	8ff#|\L	.	8D\	.	32Ree/LL	8Ra\	.	8f#/L	.	.	.	.	.	.	.	.	8ff#\Lyy	.	8ff#\L	.
.	.	.	.	.	.	.	.	.	.	32Ree/	.	.	.	.	.	.	.	.	.	.	.	.	.	.	.
.	.	.	.	.	.	.	.	.	.	32Ree/	.	.	.	.	.	.	.	.	.	.	.	.	.	.	.
.	.	.	.	.	.	.	.	.	.	32Ree/JJ	.	.	.	.	.	.	.	.	.	.	.	.	.	.	.
*	*	*	*	*	*	*	*	*	*	*Xtremolo	*	*	*	*	*	*	*	*	*	*	*	*	*	*	*
8D\J	.	8dJ 8F#/	.	8aJ 8f#/	.	8dd|\J	.	8D\J	.	8Ree/J	8Ra\J	.	8d/J	.	.	.	.	.	.	.	.	8dd\Jyy	.	8dd\J	.
*Xtremolo	*	*	*	*	*	*	*	*Xtremolo	*	*	*Xtremolo	*	*	*	*	*	*	*	*	*	*	*	*	*	*
=49	=49	=49	=49	=49	=49	=49	=49	=49	=49	=49	=49	=49	=49	=49	=49	=49	=49	=49	=49	=49	=49	=49	=49	=49	=49
.	.	.	.	.	.	.	.	.	.	16qqRee/LL	.	.	.	.	.	.	.	.	.	.	.	.	.	.	.
.	.	.	.	.	.	(>8qa/	.	.	.	16qqRee/JJ	.	.	.	.	.	.	.	.	.	.	.	(y>8qa/yy	.	(>8qa/	.
8AA/L	.	8c#L 8E/	.	8aL 8g/	.	8.aa\L)	.	8AA/L	.	8Ree/	8Ra\	.	8.a/L|	.	4.c#\	.	4.e 4.A/	.	4.a/	4.g\	.	8.aa\L)yy	.	8.aa\L)	.
8C#/	.	8c# 8E/	.	8a 8g/	.	.	.	8C#/	.	8rA	8rFF	.	.	.	.	.	.	.	.	.	.	.	.	.	.
!	!	!	!	!	!	!	!	!	!	!	!	!	!LO:N:vis=8	!	!	!	!	!	!	!	!	!	!	!	!
.	.	.	.	.	.	(16gg#X\L	.	.	.	.	.	.	(16g#X/L	.	.	.	.	.	.	.	.	(y16gg#X\Lyy	.	(16gg#X\L	.
!	!	!	!	!	!	!	!	!	!	!	!	!	!LO:N:vis=8	!	!	!	!	!	!	!	!	!	!	!	!
8AA/J	.	8c#J 8E/	.	8aJ 8g/	.	16ggn\	.	8AA/J	.	8rA	8rFF	.	16gn/	.	.	.	.	.	.	.	.	16ggn\yy	.	16ggn\	.
!	!	!	!	!	!	!	!	!	!	!	!	!	!LO:N:vis=8	!	!	!	!	!	!	!	!	!	!	!	!
.	.	.	.	.	.	16ee\JJ)	.	.	.	.	.	.	16e/JJ)	.	.	.	.	.	.	.	.	16ee\JJ)yy	.	16ee\JJ)	.
=50	=50	=50	=50	=50	=50	=50	=50	=50	=50	=50	=50	=50	=50	=50	=50	=50	=50	=50	=50	=50	=50	=50	=50	=50	=50
*tremolo	*	*	*	*	*	*	*	*tremolo	*	*	*	*	*	*	*	*	*	*	*	*	*	*	*	*	*
8D\L	.	8dL 8F#/	.	8aL 8f#/	.	16.dd\LL	.	8D\L	.	8Ree/L	8Ra\L	.	16.d/LL	.	4.d\	.	4.d 4.A/	.	4.a/	4.f#\	.	16.dd\LLyy	.	16.dd\LL	.
.	.	.	.	.	.	32ee\JJk	.	.	.	.	.	.	32e/JJk	.	.	.	.	.	.	.	.	32ee\JJkyy	.	32ee\JJk	.
*	*	*	*	*	*	*	*	*	*	*tremolo	*	*	*	*	*	*	*	*	*	*	*	*	*	*	*
8D\	.	8d 8F#/	.	8a 8f#/	.	8ff#\L	.	8D\	.	32Ree/LL	8Ra\	.	8f#/L	.	.	.	.	.	.	.	.	8ff#\Lyy	.	8ff#\L	.
.	.	.	.	.	.	.	.	.	.	32Ree/	.	.	.	.	.	.	.	.	.	.	.	.	.	.	.
.	.	.	.	.	.	.	.	.	.	32Ree/	.	.	.	.	.	.	.	.	.	.	.	.	.	.	.
.	.	.	.	.	.	.	.	.	.	32Ree/JJ	.	.	.	.	.	.	.	.	.	.	.	.	.	.	.
*	*	*	*	*	*	*	*	*	*	*Xtremolo	*	*	*	*	*	*	*	*	*	*	*	*	*	*	*
8D\J	.	8dJ 8F#/	.	8aJ 8f#/	.	8dd\J	.	8D\J	.	8Ree/J	8Ra\J	.	8d/J	.	.	.	.	.	.	.	.	8dd\Jyy	.	8dd\J	.
*Xtremolo	*	*	*	*Xtremolo	*	*	*	*Xtremolo	*	*	*	*	*	*	*	*	*	*	*	*	*	*	*	*	*
*	*	*	*	*	*	*	*	*	*	*v	*v	*	*	*	*	*	*	*	*v	*v	*	*	*	*	*
=51	=51	=51	=51	=51	=51	=51	=51	=51	=51	=51	=51	=51	=51	=51	=51	=51	=51	=51	=51	=51	=51	=51	=51
!	!LO:DY:rj	!	!LO:DY:rj	!	!LO:DY:rj	!	!	!	!	!	!	!	!	!	!	!	!	!	!	!	!	!	!
8AA/L	p	8AL 8G/	p	8.a/L	p	4.r	.	4.r	.	4.r	.	4.r	.	4.r	.	4.r	.	4.r	.	4.r	.	4.r	.
8C#/	.	8A 8G/	.	.	.	.	.	.	.	.	.	.	.	.	.	.	.	.	.	.	.	.	.
.	.	.	.	(16g#X/L	.	.	.	.	.	.	.	.	.	.	.	.	.	.	.	.	.	.	.
8AA/J	.	8AJ 8G/	.	16gn/	.	.	.	.	.	.	.	.	.	.	.	.	.	.	.	.	.	.	.
.	.	.	.	16e/JJ)	.	.	.	.	.	.	.	.	.	.	.	.	.	.	.	.	.	.	.
=52	=52	=52	=52	=52	=52	=52	=52	=52	=52	=52	=52	=52	=52	=52	=52	=52	=52	=52	=52	=52	=52	=52	=52
8D\L	.	8AL 8F#/	.	16.d/LL	.	4.r	.	4.r	.	4.r	.	4.r	.	4.r	.	4.r	.	4.r	.	4.r	.	4.r	.
.	.	.	.	32e/JJk	.	.	.	.	.	.	.	.	.	.	.	.	.	.	.	.	.	.	.
8D\	.	8A 8F#/	.	8f#/L	.	.	.	.	.	.	.	.	.	.	.	.	.	.	.	.	.	.	.
8D\J	.	8AJ 8F#/	.	8d/J	.	.	.	.	.	.	.	.	.	.	.	.	.	.	.	.	.	.	.
!!LO:PB:g=original
=53	=53	=53	=53	=53	=53	=53	=53	=53	=53	=53	=53	=53	=53	=53	=53	=53	=53	=53	=53	=53	=53	=53	=53
8AA/L	.	8AL 8G/	.	8.a/L	.	(8.a/L	.	4.r	.	4.r	.	4.r	.	4.r	.	4.r	.	4.r	.	4.r	.	4.r	.
8C#/	.	8A 8G/	.	.	.	.	.	.	.	.	.	.	.	.	.	.	.	.	.	.	.	.	.
.	.	.	.	16g#X/L	.	16b/L	.	.	.	.	.	.	.	.	.	.	.	.	.	.	.	.	.
8AA/J	.	8AJ 8G/	.	16gn/	.	16b#X/	.	.	.	.	.	.	.	.	.	.	.	.	.	.	.	.	.
.	.	.	.	16e/JJ	.	16cc#/JJ)	.	.	.	.	.	.	.	.	.	.	.	.	.	.	.	.	.
*	*	*Xtremolo	*	*	*	*	*	*	*	*	*	*	*	*	*	*	*	*	*	*	*	*	*
=54	=54	=54	=54	=54	=54	=54	=54	=54	=54	=54	=54	=54	=54	=54	=54	=54	=54	=54	=54	=54	=54	=54	=54
8D\	.	8A 8F#/	.	8d/	.	8dd\	.	4.r	.	4.r	.	4.r	.	4.r	.	4.r	.	4.r	.	4.r	.	4.r	.
8r	.	8r	.	8r	.	8r	.	.	.	.	.	.	.	.	.	.	.	.	.	.	.	.	.
8r	.	8r	.	8r	.	8r	.	.	.	.	.	.	.	.	.	.	.	.	.	.	.	.	.
.	.	.	.	.	.	.	.	.	f	.	f	.	.	.	.	.	.	.	.	.	.	.	f
=55	=55	=55	=55	=55	=55	=55	=55	=55	=55	=55	=55	=55	=55	=55	=55	=55	=55	=55	=55	=55	=55	=55	=55
*	*	*	*	*	*	*	*	*	*	*^	*	*	*	*	*	*	*	*	*	*	*	*	*
!	!LO:DY:rj	!	!LO:DY:rj	!	!	!	!LO:DY:rj	!	!	!	!	!	!	!LO:DY:rj	!	!	!	!	!	!LO:DY:rj	!	!	!	!
8AA/	f	8cc# 8e 8A\	f	8gg 8a\	.	8ccc# 8ee\	f	8AA/	.	4.Reett/	8Ra\	.	8cc# 8e/	f	8AA/	.	8e 8A/	.	8ee 8cc#\	f	8gg\	.	8ccc#\	.
8r	.	8r	.	8r	.	8r	.	8r	.	.	8r	.	8r	.	8r	.	8r	.	8r	.	8r	.	8r	.
8r	.	8r	.	8r	.	8r	.	8r	.	.	8r	.	8r	.	8r	.	8r	.	8r	.	8r	.	8r	.
=56	=56	=56	=56	=56	=56	=56	=56	=56	=56	=56	=56	=56	=56	=56	=56	=56	=56	=56	=56	=56	=56	=56	=56	=56
8D\	.	8dd 8f# 8A\	.	8ff# 8a 8d\	.	8ddd 8dd\	.	8D/	.	8Ree/	8Ra\	.	8dd 8f#/	.	8D/	.	8d 8F#/	.	8ff# 8dd\	.	8ff#\	.	8ddd\	.
8r	.	8r	.	8r	.	8r	.	8r	.	8r	8r	.	8r	.	8r	.	8r	.	8r	.	8r	.	8r	.
8r	.	8r	.	8r	.	8r	.	8r	.	8r	8r	.	8r	.	8r	.	8r	.	8r	.	8r	.	8r	.
*	*	*	*	*	*	*	*	*	*	*v	*v	*	*	*	*	*	*	*	*	*	*	*	*	*
=57||	=57||	=57||	=57||	=57||	=57||	=57||	=57||	=57||	=57||	=57||	=57||	=57||	=57||	=57||	=57||	=57||	=57||	=57||	=57||	=57||	=57||	=57||	=57||
.	.	.	.	8qA/	.	(>8qa/	.	.	.	.	.	.	.	.	.	.	.	.	.	(>8qa/	.	((8qaa/	.
(8.AA/L	.	8.A/L|	.	8.a/L	.	8.aa\L)	.	4.r	.	4.r	.	4.r	.	(8.AA/L	.	4.r	.	(8.a/L	.	8.aa\L)	.	8.aaa\L))	.
16AA#X/L	.	(16A#X/L	.	(16g#X/L	.	(16gg#X\L	.	.	.	.	.	.	.	16AA#X/L	.	.	.	16g#X/L	.	(16gg#X\L	.	(16ggg#X\L	.
16BB/	.	16B/	.	16gn/	.	16ggn\	.	.	.	.	.	.	.	16BB/	.	.	.	16gn/	.	16ggn\	.	16gggn\	.
16C#/JJ	.	16c#/JJ)	.	16e/JJ)	.	16ee\JJ)	.	.	.	.	.	.	.	16C#/JJ)	.	.	.	16e/JJ)	.	16ee\JJ)	.	16eee\JJ)	.
=58	=58	=58	=58	=58	=58	=58	=58	=58	=58	=58	=58	=58	=58	=58	=58	=58	=58	=58	=58	=58	=58	=58	=58
*	*	*	*	*	*	*	*	*	*	*^	*	*	*	*	*	*	*	*	*	*	*	*	*
!	!	!	!	!LO:TX:t=P:problem:mixed beam	!	!	!	!	!	!	!	!	!	!	!	!	!	!	!	!	!	!	!	!
8D/L)	.	8d\L	.	8d/L	.	8dd\L	.	8r	.	8r	8ryy	.	8r	.	8D\	.	8r	.	8d/L	.	8dd\L	.	8ddd\L	.
8D'/J	.	8ddJ 8f#\	.	8ff#J 8a\	.	8dddJ 8dd\	.	8D\	.	8Ree/	8Ra\	.	8dd 8f#/	.	8d\	.	8d 8F#/	.	8ddJ 8f#/	.	8ff#\J	.	8ddd\J	.
8r	.	8r	.	8r	.	8r	.	8r	.	8r	8ryy	.	8r	.	8r	.	8r	.	8r	.	8r	.	8r	.
*	*	*	*	*	*	*	*	*	*	*v	*v	*	*	*	*	*	*	*	*	*	*	*	*	*
==	==	==	==	==	==	==	==	==	==	==	==	==	==	==	==	==	==	==	==	==	==	==	==
*-	*-	*-	*-	*-	*-	*-	*-	*-	*-	*-	*-	*-	*-	*-	*-	*-	*-	*-	*-	*-	*-	*-	*-
!!!system-decoration: (<s1,s2,s3,s4,s5,s6,s7,s8>{s9,s10}<s11,s12>)
!!!RDF**kern: > = above
!!!RDF**kern: < = below
!!!RDF**kern: | = vertical stroke
!!!AIN: 1 clars 1 cor 2 empty 1 fagot 1 oboe 1 picco 1 tromp 1 tromt 1 viola 2 violn
!!!ENC: Andrzej Kubiczek
!!!END: 2021-06-18
!!!ENC: Marcin Jachim
!!!END: 2021-06-02
